!!!!SEGMENT: pl-wtm--r-1139--003_dobrzynski-ignacy-feliks--grand-trio-op-17-adagio.krn
!!!cenid: 18xx:1742
!!!COM: Dobrzyński, Ignacy Feliks
!!!COM-rismid: pe30020642
!!!CDT: 1807/02/15-1867/10/09
!!!CNT: Polish
!!!OTL: Grand Trio op. 17 – Allegro moderato
!!!PDT: 1830
!!!AGN: Secular
!!!SMS-siglum: PL-Wtm
!!!SMS-shelfmark: R 1139
!!!SMS-shelfwork: 001-003 M
!!!SMS-variant:
!!!SMS-altvar:
!!!NIFC-rismid: 1001060239
!!!URL-scan: http://repozytorium.nifc.pl/skany/pl-wtm-nut--r1139
!!!ONB-nifc: UWAGA: części Tria: 1. Allegro moderato, 2. Scherzo, 3. Adagio, 4. Rondo
!!!OMD: Adagio Fantastico
**kern	**dynam	**kern	**dynam	**kern	**kern	**dynam
*part3	*part3	*part2	*part2	*part1	*part1	*part1
*staff4	*	*staff3	*	*staff2	*staff1	*
*I"Vcello	*	*I"Violino	*	*I"Piano Forte	*I"Piano Forte	*
*I'vlc	*	*I'vl	*	*I'pf	*I'pf	*
*clefF4	*	*clefG2	*	*clefF4	*clefG2	*
*k[b-]	*	*k[b-]	*	*k[b-]	*k[b-]	*
*M4/4	*	*M4/4	*	*M4/4	*M4/4	*
*met(c)	*	*met(c)	*	*met(c)	*met(c)	*
*MM80	*	*	*	*	*	*
=1	=1	=1	=1	=1	=1	=1
!	!	!	!	!	!LO:TX:a:t=P:problem:[eight] = 80 dopisane ołówkiem	!
(4c\	.	1r	.	2r	2r	.
4f\)	.	.	.	.	.	.
*	*	*	*	*	*clefF4	*
(4F\	.	.	.	4r	(>8r	.
.	.	.	.	.	8D\L	.
4GT\	.	.	.	4BB- 4BBB-/	8E\	.
.	.	.	.	.	8D\J)	.
16qqF/LL	.	.	.	.	.	.
16qqG/JJ)	.	.	.	.	.	.
=2	=2	=2	=2	=2	=2	=2
*	*	*	*	*tremolo	*	*
!	!	!	!	!LO:SIC:v:n=2:s=32AAA	!	!
2.A\	<	1r	.	(32AALLL (32CC/	2.C#X/	.
!	!	!	!	!LO:SIC:v:n=2:s=32AAA	!	!
.	.	.	.	32AA 32CC/	.	.
!	!	!	!	!LO:SIC:v:n=2:s=32AAA	!	!
.	.	.	.	32AA 32CC/	.	.
!	!	!	!	!LO:SIC:v:n=2:s=32AAA	!	!
.	[	.	.	32AA 32CC/	.	.
!	!	!	!	!LO:SIC:v:n=2:s=32AAA	!	!
.	.	.	.	32AA 32CC/	.	.
!	!	!	!	!LO:SIC:v:n=2:s=32AAA	!	!
.	.	.	.	32AA 32CC/	.	.
!	!	!	!	!LO:SIC:v:n=2:s=32AAA	!	!
.	.	.	.	32AA 32CC/	.	.
!	!	!	!	!LO:SIC:v:n=2:s=32AAA	!	!
.	.	.	.	32AA 32CC/	.	.
!	!	!	!	!LO:SIC:v:n=2:s=32AAA	!	!
.	>	.	.	32AA 32CC/	.	.
!	!	!	!	!LO:SIC:v:n=2:s=32AAA	!	!
.	.	.	.	32AA 32CC/	.	.
!	!	!	!	!LO:SIC:v:n=2:s=32AAA	!	!
.	.	.	.	32AA 32CC/	.	.
!	!	!	!	!LO:SIC:v:n=2:s=32AAA	!	!
.	]	.	.	32AA 32CC/	.	.
!	!	!	!	!LO:SIC:v:n=2:s=32AAA	!	!
.	.	.	.	32AA 32CC/	.	.
!	!	!	!	!LO:SIC:v:n=2:s=32AAA	!	!
.	.	.	.	32AA 32CC/	.	.
!	!	!	!	!LO:SIC:v:n=2:s=32AAA	!	!
.	.	.	.	32AA 32CC/	.	.
!	!	!	!	!LO:SIC:v:n=2:s=32AAA	!	!
.	.	.	.	32AAJJJ 32CC/	.	.
*	*	*	*	*Xtremolo	*	*
.	.	.	.	4AA) 4AAA/)	.	.
4r	.	.	.	4r	4r	.
=3	=3	=3	=3	=3	=3	=3
*	*	*	*	*	*clefG2	*
1r	.	(4cc\	.	2r	2r	.
.	.	4ff\)	.	.	.	.
.	.	(4f/	.	4r	(>8r	.
.	.	.	.	.	8d/L	.
.	.	4gT/	.	(4B- 4BB-\	8e/	.
.	.	.	.	.	8d/J)	.
.	.	16qqf/LL	.	.	.	.
.	.	16qqg/JJ)	.	.	.	.
=4	=4	=4	=4	=4	=4	=4
1r	.	4.a/	.	4.A 4.AA\)	4.c#X/	.
.	.	8r	.	(>16r	(>16r	.
.	.	.	.	64E\LLLL	64e/LLLL	.
.	.	.	.	64F\	64f/	.
.	.	.	.	64G\	64g/	.
.	.	.	.	64A\JJJJ)	64a/JJJJ)	.
.	.	2r	.	(2B-\	(>2b-T/	.
.	.	.	.	32qqA\LLL	32qqa/LLL)	.
.	.	.	.	32qqG\	32qqg/	.
.	.	.	.	32qqF\	32qqf/	.
.	.	.	.	32qqE\	32qqe/	.
.	.	.	.	32qqD\JJJ)	32qqd/JJJ	.
=5	=5	=5	=5	=5	=5	=5
*	*	*	*	*^	*^	*
1ryy	.	1ryy	.	8C#X\	2.ryy	8c#X/	2.ryy	.
.	.	.	.	4c#X 4C#\	.	4gg 4ee 4a\	.	fz
.	.	.	.	16.dLL 16.D\	.	16.ffLL 16.dd 16.a/	.	.
.	.	.	.	32AJJk 32AA\	.	32ee-XJJk 32cc 32f/	.	.
.	.	.	.	16.B-LL 16.BB-\	.	16.ddLL 16.b- 16.f/	.	.
.	.	.	.	32F#XK 32FF#X\	.	32ccK 32a 32d/	.	.
.	.	.	.	16.G 16.GG\	.	16.b- 16.g 16.d/	.	.
.	.	.	.	32AJJk 32AA\	.	32ddJJk 32a 32d/	.	.
.	.	.	.	8B-/L	4B- 4BB-\	8g/L	[4d\	.
.	.	.	.	[8F#/J	.	8g#X/J	.	.
=6	=6	=6	=6	=6	=6	=6	=6	=6
1ryy	.	1ryy	.	8F#/L]	[4AA\	[4a/	8d\L]	.
.	.	.	.	16.E/L	.	.	16c#X\L	.
.	.	.	.	.	.	.	16Bn\JJ	.
.	.	.	.	32D/JJk	.	.	.	.
.	.	.	.	8E/	8AA\]	8a/]	8c#\	.
.	.	.	.	16r	8ryy	(>16r	8ryy	.
!	!	!	!	!	!	!LO:N:vis=32	!	!
.	.	.	.	(>64AA/LLLL	.	64A/LLLL	.	.
!	!	!	!	!	!	!LO:N:vis=32	!	!
.	.	.	.	64BB-/	.	64B/	.	.
!	!	!	!	!	!	!LO:N:vis=32	!	!
.	.	.	.	64C/	.	64c#/	.	.
!	!	!	!	!	!	!LO:N:vis=32	!	!
.	.	.	.	64D/JJJJ)	.	64d/JJJJ)	.	.
.	.	.	.	(2E-Xt\	2ryy	(>2e-XT/	2ryy	.
.	.	.	.	16qqD\LL	.	32qqd/LLL	.	.
.	.	.	.	16qqC\	.	32qqc#/	.	.
.	.	.	.	16qqBB-\	.	32qqB</	.	.
.	.	.	.	16qqAA\	.	32qqA</	.	.
.	.	.	.	16qqGG\JJ	.	32qqG</JJJ	.	.
*	*	*	*	*v	*v	*	*	*
=7	=7	=7	=7	=7	=7	=7	=7
1ryy	.	1ryy	.	8FF#\	8F#X</)	8ryy	.
.	.	.	.	4F#y 4FF#/	4ccc 4aa 4dd\	8ryy	.
.	.	.	.	.	.	4ryy	.
.	.	.	.	16.GLL 16.GG/	16.bb-LL 16.gg 16.dd\	.	.
.	.	.	.	32AJJk 32AA/	32aaJJk 32ff 32dd\	.	.
.	.	.	.	8B-L 8BB-\	16gg/LL	8dd\L	.
.	.	.	.	.	16ff/	.	.
.	.	.	.	8BnJ 8BBn\	16ee/	8a-X 8f\	.
.	.	.	.	.	16dd/JJ	.	.
.	.	.	.	8.cL 8.C\	16dd/LL	8.g 8.e\	.
.	.	.	.	.	16cc/	.	.
.	.	.	.	.	16bn/	.	<
.	.	.	.	16c#Jk 16C#X\	16b-X/JJ	16gJk 16d\	.
=8	=8	=8	=8	=8	=8	=8	=8
!	!	!	!	!	!LO:S:s=2:note:problem:note-level slur	!	!
1ryy	.	1ryy	.	(4c 4C\	(4b- (<4g ((4e^>/	4ryy	[ fz
.	.	.	.	8d 8D\)	8a) 8f/))	8ryy	.
.	.	.	.	(8c\L	(8ee/L	8aL 8f#X^\	.
.	.	.	.	8Bn'\J)	8dd/J)	8g\J	.
.	.	.	.	(8d\L	(8ff/L	8bnL 8g#X^\	.
.	.	.	.	8c#X'\J)	8ee/J)	8a\J	.
.	.	.	.	(8e\	(8gg/	(8cc#X 8b-X\	.
!!LO:PB:g=original
=9	=9	=9	=9	=9	=9	=9	=9
!	!	!	!	!LO:TX:a:t=P:problem:brak zakończenia łuku	!	!LO:TX:a:t=P:problem:zakończenie czterech łuków	!
1ryy	.	1ryy	.	8d\)	8ff/)	8dd 8a\)	.
.	.	.	.	4g\	4bb- 4ee/	4cc#X\	.
.	.	.	.	16.f\LL	16.aa/LL	16.dd\LL	.
.	.	.	.	32c#X\JJk	32gg/JJk	32eeJJk 32a\	.
!	!	!	!	!	!LO:TX:t=P:problem:przekreślona 8ee	!	!
.	.	.	.	8d\L	8ff/L	8ddL 8a\	.
.	.	.	.	8B- 8BB-\	8dd/	8f\	.
!	!	!	!	!LO:SIC:v:n=1:s=8cn	!	!	!
.	.	.	.	8c# 8C\	8g/	8f\	.
!	!	!	!	!LO:SIC:v:n=1:s=8cn	!	!	!
.	.	.	.	8c#J 8C\	8ccnJ 8g/	8e\J	.
=10	=10	=10	=10	=10	=10	=10	=10
(>8.r	.	(>8.r	.	4.Bn 4.A-X 4.F 4.BBn\	4.dd/	4.a-X 4.f\	fz
32F\LLL	f	32f/LLL	f	.	.	.	.
32G\JJJ	>	32g/JJJ	.	.	.	.	.
4A-XT\)	.	4a-XT/)	>	.	.	.	.
.	.	.	.	8r	(8r	8ryy	.
16qqG/LL	]	16qqg/LL	.	.	.	.	.
16qqF/JJ	.	16qqf/JJ	]	.	.	.	.
*	*	*	*	*^	*	*	*
4C\	.	4c/	.	4c/	2C\	4a-/	4f\	.
.	.	.	.	.	.	16qqb-/LL	.	.
.	.	.	.	.	.	16qqa-/	.	.
.	.	.	.	.	.	16qqg#X/	.	.
.	.	.	.	.	.	16qqa-/JJ	.	.
4r	.	4r	.	4B/	.	16cc/LL	4e\	.
.	.	.	.	.	.	16b-/	.	.
.	.	.	.	.	.	16g#/	.	.
.	.	.	.	.	.	16a-/JJ)	.	.
=11	=11	=11	=11	=11	=11	=11	=11	=11
1r	.	(4cc\	.	8A/	4F\	16f/LL	4f\	.
.	.	.	.	.	.	16f 16c 16A/	.	.
.	.	.	.	8ryy	.	16f 16c 16A/	.	.
.	.	.	.	.	.	16fJJ 16c 16A/	.	.
*	*	*	*	*	*	*tremolo	*	*
.	.	4ff\)	.	4r	2.ryy	16fLL 16c 16A/	4ryy	.
.	.	.	.	.	.	16f 16c 16A/	.	.
.	.	.	.	.	.	16f 16c 16A/	.	.
.	.	.	.	.	.	16fJJ 16c 16A/	.	.
.	.	.	.	16qqAA/LL	.	.	.	.
.	.	.	.	16qqC#X/JJ	.	.	.	.
.	.	(>4f/	.	4DT\	.	8fL 8d 8A/	2ryy	.
.	.	.	.	.	.	8fJ 8d 8A/	.	.
.	.	.	.	16qqC#/LL	.	.	.	.
.	.	.	.	16qqD/JJ	.	.	.	.
.	.	4gT/	.	4C#X/	.	8eL 8A/	.	.
.	.	.	.	.	.	8eJ 8A/	.	.
*	*	*	*	*v	*v	*	*	*
*	*	*	*	*	*v	*v	*
.	.	16qqf/LL	.	.	.	.
.	.	16qqg/JJ	.	.	.	.
*clefG2	*	*	*	*	*	*
=12	=12	=12	=12	=12	=12	=12
.	.	.	.	16qqBBn/LL	.	.
.	.	.	.	16qqC/	.	.
.	.	.	.	16qqD/JJ	.	.
(4cc\	.	4a/)	.	2CT/	16f#XLL 16d 16A/	.
.	.	.	.	.	16f# 16d 16A/	.
.	.	.	.	.	16f# 16d 16A/	.
.	.	.	.	.	16f# 16d 16A/	.
[4aa\	.	4r	.	.	16f# 16d 16A/	.
.	.	.	.	.	16f# 16d 16A/	.
.	.	.	.	.	16f# 16d 16A/	.
.	.	.	.	.	16f#JJ 16d 16A/	.
*	*	*	*	*	*Xtremolo	*
.	.	.	.	16qqBB/LL	.	.
.	.	.	.	16qqC/JJ	.	.
(32aa\LLL])	.	2r	.	8BB-X/	8g 8d 8G/	.
32gg\	.	.	.	.	.	.
32bb-\	.	.	.	.	.	.
32aa\	.	.	.	.	.	.
32gg\	.	.	.	8r	8r	.
32ff\	.	.	.	.	.	.
32ee\	.	.	.	.	.	.
32dd\JJJ	.	.	.	.	.	.
32cc\LLL)	.	.	.	8C/	8g 8c 8B-/	.
(32cc#X\	.	.	.	.	.	.
32ee\	.	.	.	.	.	.
32dd\	.	.	.	.	.	.
32ccn\	.	.	.	8r	8r	.
32b-\	.	.	.	.	.	.
32d\	.	.	.	.	.	.
32e\JJJ	.	.	.	.	.	.
=13	=13	=13	=13	=13	=13	=13
*	*	*	*	*^	*	*
!	!	!	!	!LO:TX:t=P:problem:mixed beam	!	!	!
4f/)	.	1r	.	16FF/LL	4ryy	(4ccc 4cc\	.
.	.	.	.	16c 16A 16F\	.	.	.
.	.	.	.	16c 16A 16F\	.	.	.
.	.	.	.	16cJJ 16A 16F\	.	.	.
*	*	*	*	*tremolo	*	*	*
4r	.	.	.	16cLL 16A 16F\	4ryy	4fff 4ff\	.
.	.	.	.	16c 16A 16F\	.	.	.
.	.	.	.	16c 16A 16F\	.	.	.
.	.	.	.	16cJJ 16A 16F\	.	.	.
!	!	!	!	!	!LO:N:vis=2	!	!
2r	.	.	.	2D/	16D\LL	4ffT\)	.
.	.	.	.	.	16A 16F\	.	.
.	.	.	.	.	16A 16F\	.	.
.	.	.	.	.	16AJJ 16F\	.	.
.	.	.	.	.	.	16qqee/LL	<
.	.	.	.	.	.	16qqff/	.
.	.	.	.	.	.	16qqgg/JJ	.
.	.	.	.	.	16ALL 16F\	(16aa\LL	.
*	*	*	*	*	*	*Xtuplet	*
.	.	.	.	.	16A 16F\	48aa\L	.
.	.	.	.	.	.	48bb-\	.
.	.	.	.	.	.	48ccc#X\JJJ	[
.	.	.	.	.	16A 16F\	16ddd\LL)	<
.	.	.	.	.	.	16qqddd/LL	.
.	.	.	.	.	.	16qqeee/	.
.	.	.	.	.	.	16qqfff/	.
.	.	.	.	.	.	16qqggg/JJ	.
.	.	.	.	.	16AJJ 16F\	16aaa\JJ	[
=14	=14	=14	=14	=14	=14	=14	=14
*	*	*	*	*	*	*8va	*
!	!	!	!	!	!LO:N:vis=2	!	!
(2ff\	.	(>2a-X/	.	2BBn/	16BBn\LL	(8dddd\L	.
.	.	.	.	.	16d 16A-X 16F\	.	.
.	.	.	.	.	16d 16A- 16F\	64dddd\LLL)	.
.	.	.	.	.	.	64bbbn\	.
.	.	.	.	.	.	64aaa-X\	.
!	!	!	!	!	!	!LO:TX:a:t=8	!
.	.	.	.	.	.	64fff\	.
.	.	.	.	.	16dJJ 16A- 16F\	64ddd\	.
.	.	.	.	.	.	64bb-\	.
.	.	.	.	.	.	64aaan\	.
.	.	.	.	.	.	64fff\JJJJ	.
*	*	*	*	*	*	*X8va	*
!	!	!	!	!	!	!LO:TX:a:t=loco	!
.	.	.	.	.	16dLL 16A- 16F\	([4dd\	.
.	.	.	.	.	16d 16A- 16F\	.	.
.	.	.	.	.	16d 16A- 16F\	.	.
.	.	.	.	.	16dJJ 16A- 16F\	.	.
*	*	*	*	*	*Xtremolo	*	*
8ff\)	.	4an/	.	4C/	16C\LL	32dd\LLL]	.
.	.	.	.	.	.	32cc\	.
.	.	.	.	.	16c 16An 16E\	32b-\	.
.	.	.	.	.	.	32cc\	.
4cc\	.	.	.	.	16c 16A 16F\	32aa\	.
.	.	.	.	.	.	32ee\	.
.	.	.	.	.	16cJJ 16A 16F\	32ff\	.
.	.	.	.	.	.	32dd\JJJ	.
.	.	4g/	.	4C/	16C\LL	32cc\LLL	.
.	.	.	.	.	.	32cc#X\	.
.	.	.	.	.	16c 16B- 16G 16E\	32dd\	.
.	.	.	.	.	.	32a\	.
8b-\	.	.	.	.	16c 16B- 16G 16E\	32ccn\	.
.	.	.	.	.	.	32b-\	.
.	.	.	.	.	16cJJ 16B- 16G 16E\	32g\	.
.	.	.	.	.	.	32a\JJJ	.
*	*	*	*	*v	*v	*	*
=	=	=	=	=	=	=
4a\	.	4f/)	.	8cL 8F 8C\	8f/L)	.
.	.	.	.	16r	16r	.
*	*	*	*	*Xtuplet	*	*
.	.	.	.	48C\LL	48c/LL	.
.	.	.	.	48D\	48d/	f
.	.	.	.	48E\JJJ	48e/JJJ	.
4r	.	4r	.	8.FT\L	8.fT/L	.
.	.	.	.	48E\LL	48e/LL	.
.	.	.	.	48D\	48d/	.
.	.	.	.	48C\JJJ	48c/JJJ	.
!!LO:PB:g=original
=15	=15	=15	=15	=15	=15	=15
2r	.	(4gg\	.	8BBn/L	8Bnt/L	.
.	.	.	.	16.r	16.r	.
.	.	.	.	64GG/LLL	64G/LLL	.
.	.	.	.	64AA/JJJJ	64A/JJJJ	.
.	.	4ddd\)	.	4BBt/	4Bt/	.
.	.	.	.	16qqAA/LL	16qqA/LL	.
.	.	.	.	16qqBB/JJ	16qqB/JJ	.
=16	=16	=16	=16	=16	=16	=16
(4ee\	.	(4ccc\	.	8C\L	8c/L	.
.	.	.	.	16.r	16.r	.
.	.	.	.	64C\LLL	64c/LLL	.
.	.	.	.	64D\JJJJ	64d/JJJJ	.
4gg\)	.	4bb-\)	.	4Et\	4et/	.
.	.	.	.	16qqD/LL	16qqd/LL	.
.	.	.	.	16qqE/JJ	16qqe/JJ	.
(4ff\	.	(4aa\	.	8F\L	8f/L	.
.	.	.	.	16r	16r	.
.	.	.	.	48C\LL	48c/LL	.
.	.	.	.	48D\	48d/	.
.	.	.	.	48E\JJJ	48e/JJJ	.
4ee-X\	.	8ccc\L)	.	8.FT\L	8.fT/L	.
.	.	([8ff\J	.	.	.	.
!	!	!	!	!LO:SIC:v:s=48E-	!	!
.	.	.	.	48E\LL	48e-X/LL	.
.	.	.	.	48D\	48d/	.
.	.	.	.	48C\JJJ	48c/JJJ	.
=17	=17	=17	=17	=17	=17	=17
4dd\)	p	4ff\]	p	8BB-/L	16B-/LL	.
.	.	.	.	.	16f 16d 16B-/	p
.	.	.	.	16.r	16f 16d 16B-/	.
.	.	.	.	.	16fJJ 16d 16B-/	.
*	*	*	*	*tuplet	*	*
!	!	!	!	!LO:TUP:a:problem:klamra łukowa	!	!
.	.	.	.	96FF/LLL	.	.
.	.	.	.	96GG/	.	.
.	.	.	.	96AA/JJJJ	.	.
*	*	*	*	*	*tremolo	*
4r	.	8bb-\)	.	4BB-T/	16fLL 16d 16B-/	.
.	.	.	.	.	16f 16d 16B-/	.
!LO:TX:Bi:t=poco a poco cres-:problem:dynamics with extention lines	!LO:HP:a:t=poco a pooco cres-	!LO:N:vis=16	!	!	!	!
.	<	8r	.	.	16f 16d 16B-/	.
.	.	.	.	.	16fJJ 16d 16B-/	.
.	.	.	.	16qqAA/LL	.	.
.	.	.	.	16qqBB-/JJ	.	.
(4dd\	.	(4ggT\	.	8BBn/L	16fLL 16d 16G/	.
.	.	.	.	.	16f 16d 16G/	.
!	!	!	!	!LO:N:vis=16.	!	!
.	.	.	.	16r	16f 16d 16G/	.
!	!	!	!	!LO:TX:Bi:t=poco a poco cres-:problem:dynamics with extention lines	!	!LO:HP:t=poco a pooco cres-
.	.	.	.	64GG/LLL	16fJJ 16d 16G/	<
.	.	.	.	64AA/	.	.
.	.	.	.	64BB/	.	.
.	.	.	.	64C/JJJJ	.	.
.	.	16qqff#X/LL)	.	.	.	.
.	.	16qqgg/JJ	.	.	.	.
4gg\)	.	8g/	.	8D/L	16fLL 16d 16G/	.
.	.	.	.	.	16f 16d 16G/	.
.	.	8r	.	8BBt/J	16f 16d 16G/	.
.	.	.	.	.	16fJJ 16d 16G/	.
*	*	*	*	*	*Xtremolo	*
.	.	.	.	16qqAA/LL	.	.
.	.	.	.	16qqBB/JJ	.	.
=18	=18	=18	=18	=18	=18	=18
4ee-XT\	.	(4gg\	.	8C/L	16e-XLL 16d 16G/	.
.	.	.	.	.	16e- 16d 16G/	.
.	.	.	.	16.r	16e- 16B- 16G/	.
.	.	.	.	.	16e-JJ 16Bn 16G/	.
*	*	*	*	*Xtuplet	*	*
.	.	.	.	96GG/LLL	.	.
.	.	.	.	96AA/	.	.
.	.	.	.	96BBn/JJJJ	.	.
16qqdd/LL	.	.	.	.	.	.
16qqee-/JJ	.	.	.	.	.	.
8cc\	.	8ccc\)	.	4CT/	16e-LL 16c 16G/	.
.	.	.	.	.	16e- 16c 16G/	.
8r	.	8r	.	.	16en 16c 16G/	.
.	.	.	.	.	16eJJ 16c 16G/	.
.	.	.	.	16qqBB/LL	.	.
.	.	.	.	16qqC/JJ	.	.
*	*	*	*	*	*tremolo	*
!	!	!LO:TX:a:t=P:problem:bemol pod trylem	!	!	!	!
4een\	.	4aat\	.	8C#X/L	16eLL 16A/	.
.	.	.	.	.	16e 16A/	.
.	.	.	.	16.r	16e 16A/	.
.	.	.	.	.	16eJJ 16A/	.
.	.	.	.	64AA/LLL	.	.
.	.	.	.	64BBn/JJJJ	.	.
.	.	(>16qqgg#/LL	.	.	.	.
.	.	16qqaa/JJ)	.	.	.	.
4aa'\	.	8a/	.	4C#t/	16gLL 16e 16A/	.
.	.	.	.	.	16g 16e 16A/	.
.	.	8r	.	.	16g 16e 16A/	.
.	.	.	.	.	16gJJ 16e 16A/	.
.	.	.	.	16qqBB/LL	.	.
.	.	.	.	16qqC#/JJ	.	.
=19	=19	=19	=19	=19	=19	=19
4ffT\	.	(4aa\	.	8D/L	16fLL 16d 16A/	.
.	.	.	.	.	16f 16e 16A/	.
.	.	.	.	16.r	16f 16d 16A/	.
.	.	.	.	.	16eJJ 16c#X 16A/	.
*	*	*	*	*tuplet	*	*
!	!	!	!	!LO:TUP:b:problem:klamra łukowa	!	!
.	.	.	.	96AA/LLL	.	.
.	.	.	.	96BBn/	.	.
.	.	.	.	96C#X/JJJJ	.	.
16qqee/LL	.	.	.	.	.	.
16qqff/JJ	.	.	.	.	.	.
8dd\	.	8ddd\)	.	4DT/	16fLL 16d 16A/	.
.	.	.	.	.	16f 16d 16A/	.
8r	.	8r	.	.	16f 16d 16A/	.
.	.	.	.	.	16fJJ 16d 16A/	.
.	.	.	.	16qqC#/LL	.	.
.	.	.	.	16qqD/JJ	.	.
(16ff#X'\LL	.	4bbnt\	.	8D#X/L	16aLL 16f#X 16Bn/	[
64b-\LL	.	.	.	.	16a 16f# 16B/	.
64cc#X\	.	.	.	.	.	.
64dd#X\	.	.	.	.	.	.
64ee\JJ	[	.	.	.	.	.
16ff#\JJ)	.	.	.	16.r	16a 16f# 16B/	.
16r	.	.	.	.	16aJJ 16f# 16B/	.
.	.	.	.	64BBn/LLL	.	.
.	.	.	.	64C#X/JJJJ	.	.
.	.	(>16qqaa#X/LL	.	.	.	.
.	.	16qqbb/JJ)	.	.	.	.
16r	.	8bn\	.	4D#t/	16aLL 16f# 16B/	.
(64ff#\LLLL	.	.	.	.	16a 16f# 16B/	.
64ee\	.	.	.	.	.	.
64dd#\	.	.	.	.	.	.
64cc#\JJJJ	.	.	.	.	.	.
16b-/LL)	.	8r	.	.	16a 16f# 16B/	.
(64b-/LL	.	.	.	.	16aJJ 16f# 16B/	.
64a/	.	.	.	.	.	.
64g/	.	.	.	.	.	.
64f/JJJJ)	.	.	.	.	.	.
.	.	.	.	16qqC#/LL	.	.
.	.	.	.	16qqD#/JJ	.	.
=20	=20	=20	=20	=20	=20	=20
8e/	.	16r	<	8E\L	16gLL 16f 16B-/	.
!	!	!LO:TUP:a	!	!	!	!
.	.	(48bbn\LLL	.	.	16g 16f 16B-/	.
.	.	48ccc#X\	.	.	.	.
.	.	48ddd#X\JJ	[	.	.	.
8r	.	8eee'\J)	.	16.r	16g 16e 16B-/	.
.	.	.	.	.	16gJJ 16d#X 16B-/	.
*	*	*	*	*Xtuplet	*	*
.	.	.	.	96BB-\LLL	.	.
.	.	.	.	96C#X\	.	.
.	.	.	.	96D#X\JJJJ	.	.
*clefF4	*	*	*	*	*	*
16r	.	4r	.	4ET\	16gLL 16e 16B-/	.
!LO:TUP:a	!	!	!	!	!	!
(48B-\LLL	<	.	.	.	16g 16e 16B-/	.
48c#X\	.	.	.	.	.	.
48d#X\JJ	.	.	.	.	.	.
8e'\J)	[	.	.	.	16g 16e 16B-/	.
.	.	.	.	.	16gJJ 16e 16B-/	.
.	.	.	.	16qqD#/LL	.	.
.	.	.	.	16qqE#/JJ	.	.
4r	.	16r	.	8C#/L	16gLL 16e 16c/	.
!	!	!LO:TUP:a	!	!	!	!
.	.	(48gg\LLL	<	.	16g 16e 16c/	.
.	.	48aa\	.	.	.	.
.	.	48bb\JJ	.	.	.	.
.	.	8ccc#'\J)	[	16.r	16g 16e 16c/	.
.	.	.	.	.	16gJJ 16e 16c/	.
*	*	*	*	*tuplet	*	*
!	!	!	!	!LO:TUP:a:problem:klamra łukowa	!	!
.	.	.	.	96GG/LLL	.	.
.	.	.	.	96AA/	.	.
.	.	.	.	96BB-/JJJJ	.	.
16r	.	4r	.	4C#T/	16gLL 16e 16c/	.
!LO:TUP:a	!	!	!	!	!	!
(48G\LLL	<	.	.	.	16g 16e 16c/	.
48A\	.	.	.	.	.	.
48B-\JJ	.	.	.	.	.	.
8c#'\J)	[	.	.	.	16g 16e 16c/	.
.	.	.	.	.	16gJJ 16e 16c/	.
.	.	.	.	16qqBB-/LL	.	.
.	.	.	.	16qqC#/JJ	.	.
!!LO:PB:g=original
=21	=21	=21	=21	=21	=21	=21
4r	.	(>16r	.	8AA/L	16aLL 16e 16c/	.
!	!	!LO:TUP:a	!	!	!	!
.	.	48ee\LLL	.	.	16a 16e 16c/	.
.	.	48ff#X\	.	.	.	.
.	.	48gg#X\JJ	.	.	.	.
.	.	8aa'\J)	.	16.r	16a 16e 16c/	.
.	.	.	.	.	16aJJ 16e 16c/	.
!	!	!	!	!LO:TUP:a:problem:klamra łukowa	!	!
.	.	.	.	96EE/LLL	.	.
.	.	.	.	96FF#X/	.	.
.	.	.	.	96GG#X/JJJJ	.	.
(>16r	.	4r	.	4AAt/	16aLL 16e 16c/	.
!LO:TUP:a	!	!	!	!	!	!
48E\LLL	.	.	.	.	16a 16e 16c/	.
48F#X\	.	.	.	.	.	.
48G#X\JJ	.	.	.	.	.	.
8A'\J)	.	.	.	.	16a 16e 16c/	.
.	.	.	.	.	16aJJ 16e 16c/	.
.	.	.	.	16qqGG#/LL	.	.
.	.	.	.	16qqAA/JJ	.	.
2r	.	16r	.	8FF#X/L	16aLL 16e-X 16c/	.
.	.	(32ff#X\LLL	.	.	16a 16e- 16c/	.
.	.	32gg#\	.	.	.	.
.	.	32aa\	.	16.r	16a 16e- 16c/	.
.	.	32bb-\J	.	.	.	.
.	.	16ccc'\JJ)	.	.	16aJJ 16e- 16c/	.
.	.	.	.	64DD/LLL	.	.
.	.	.	.	64EE/JJJJ	.	.
.	.	4d/	.	4FF#T/	16aLL 16d 16c/	.
.	.	.	.	.	16a 16d 16c/	.
.	.	.	.	.	16a 16d 16c/	.
.	.	.	.	.	16aJJ 16d 16c/	.
*	*	*	*	*	*Xtremolo	*
.	.	.	.	16qqEE/LL	.	.
.	.	.	.	16qqFF#/JJ	.	.
=22	=22	=22	=22	=22	=22	=22
!	!LO:DY:a	!	!LO:DY:a	!	!	!
1r	f	4G/	f	16GG/	8g 8d 8B-/	f
.	.	.	.	16BnLL 16G 16E 16D\	.	.
.	.	.	.	16B 16G 16D\	(>16r	.
!	!	!	!	!	!LO:TUP:a:problem:klamra łukowa	!
.	.	.	.	16BJJ 16G 16D\	48dd\LLL	.
.	.	.	.	.	48ee\	.
.	.	.	.	.	48ff#X\JJJ)	.
.	.	4r	.	16BLL 16G 16D\	16gg'\LL	.
.	.	.	.	16B 16G 16D\	(64gg\LL	.
.	.	.	.	.	64aa\	.
.	.	.	.	.	64bbn\	.
.	.	.	.	.	64ccc\JJJJ	.
!	!	!	!	!	!LO:N:vis=8	!
.	.	.	.	16B 16G 16D\	16ddd'\LL)	.
*	*	*	*	*	*8va	*
.	.	.	.	16BJJ 16G 16D\	(80bbny\LL	.
.	.	.	.	.	80ccc\	.
.	.	.	.	.	80ddd\	.
.	.	.	.	.	80eee\	.
.	.	.	.	.	80fff#X\JJJJ	.
.	.	2r	.	16GG/	8ggg\)	.
.	.	.	.	16BLL 16G 16D\	.	.
.	.	.	.	16B 16G 16D\	4.dddT\	.
.	.	.	.	16BJJ 16G 16D\	.	.
*	*	*	*	*tremolo	*	*
.	.	.	.	16BLL 16G 16D\	.	.
.	.	.	.	16B 16G 16D\	.	.
.	.	.	.	16B 16G 16D\	.	.
.	.	.	.	16BJJ 16G 16D\	.	.
*	*	*	*	*Xtremolo	*	*
.	.	.	.	.	(>16qqccc#X/LL	.
.	.	.	.	.	16qqddd/	.
.	.	.	.	.	16qqggg/	.
.	.	.	.	.	16qqbbb/JJ)	.
=23	=23	=23	=23	=23	=23	=23
!	!	!	!	!	!LO:N:vis=8..	!
1ryy	.	1r	.	16DD/	8.dddd\L	.
.	.	.	.	16cLL 16A 16F 16D\	.	.
.	.	.	.	16c 16A 16F 16D\	.	.
.	.	.	.	16cJJ 16A 16F 16D\	(48cccc\LL	.
.	.	.	.	.	48ggg#X\	.
.	.	.	.	.	48aaa\JJJ	.
*	*	*	*	*tremolo	*	*
.	.	.	.	16cLL 16A 16D\	32bbbn\LLL	.
.	.	.	.	.	32aaa\	.
.	.	.	.	16c 16A 16D\	32eee#X\	.
.	.	.	.	.	32fff#X\	.
.	.	.	.	16c 16A 16D\	32ggg#\	.
.	.	.	.	.	32fff#\	.
.	.	.	.	16cJJ 16A 16D\	32ccc#X\	.
*	*	*	*	*Xtremolo	*	*
.	.	.	.	.	32ddd\JJJ	.
.	.	.	.	16DD/	32eeen\LLL	.
.	.	.	.	.	32ddd\	.
*	*	*	*	*	*X8va	*
!	!	!	!	!	!LO:TX:a:t=loco	!
.	.	.	.	16cLL 16A 16F 16D\	32bb\	.
.	.	.	.	.	32ccc\	.
.	.	.	.	16c 16A 16F 16D\	32gg#X\	.
.	.	.	.	.	32aa\	.
.	.	.	.	16cJJ 16A 16F 16D\	32ee#X\	.
.	.	.	.	.	32ff#X\JJJ	.
*	*	*	*	*tremolo	*	*
.	.	.	.	16cLL 16A 16D\	32cc#X\LLL	.
.	.	.	.	.	32dd\	.
.	.	.	.	16c 16A 16D\	32b-\	.
.	.	.	.	.	32ccn\	.
.	.	.	.	16c 16A 16D\	32g#X\	.
.	.	.	.	.	32a\	.
.	.	.	.	16cJJ 16A 16D\	32e\	.
*	*	*	*	*Xtremolo	*	*
.	.	.	.	.	32f#X\JJJ	.
=24	=24	=24	=24	=24	=24	=24
(4d\	.	1r	.	16GG/	8g/L	.
.	.	.	.	16BnLL 16G 16D\	.	.
!	!	!	!	!	!LO:TUP:a:problem:klamra łukowa	!
.	.	.	.	16B 16G 16D\	24r	.
.	.	.	.	.	&(48g/LL	.
.	.	.	.	16BJJ 16G 16D\	48a/	.
.	.	.	.	.	48b-/)	.
.	.	.	.	.	48cc/JJJ	.
*	*	*	*	*tremolo	*	*
!	!	!	!	!	!LO:N:vis=8	!
4g\)	.	.	.	16BLL 16G 16D\	16cc'\LL	.
!	!	!	!	!	!LO:TUP:a:problem:klamra łukowa	!
.	.	.	.	16B 16G 16D\	96r	.
.	.	.	.	.	96b-\LL	.
.	.	.	.	.	(96cc\	.
.	.	.	.	.	96dd\&)	.
.	.	.	.	.	96ee\	.
.	.	.	.	.	96ff#X\JJJJ	.
.	.	.	.	16B 16G 16D\	16gg'\LL	.
!	!	!	!	!	!LO:TUP:a:problem:klamra łukowa	!
.	.	.	.	16BJJ 16G 16D\	80r	.
*	*	*	*	*Xtremolo	*	*
.	.	.	.	.	80gg\LL	.
.	.	.	.	.	80aa\	.
.	.	.	.	.	80bb-\	.
.	.	.	.	.	80ccc\JJJJ	.
2B-T\	.	.	.	16GG/	8ddd'\)	.
.	.	.	.	16BLL 16G 16D\	.	.
*	*	*	*	*	*8va	*
.	.	.	.	16B 16G 16D\	(4.dddT\	.
.	.	.	.	16BJJ 16G 16D\	.	.
*	*	*	*	*tremolo	*	*
.	.	.	.	16BLL 16G 16D\	.	.
.	.	.	.	16B 16G 16D\	.	.
.	.	.	.	16B 16G 16D\	.	.
.	.	.	.	16BJJ 16G 16D\	.	.
*	*	*	*	*Xtremolo	*	*
.	.	.	.	.	16qqccc#X/LL	.
.	.	.	.	.	16qqddd/	.
16qqA/LL	.	.	.	.	16qqggg/	.
16qqB-/JJ	.	.	.	.	16qqbbb-/JJ	.
!!LO:PB:g=original
=25	=25	=25	=25	=25	=25	=25
(1c	.	(4dd\	.	16DD/	[8dddd\L	.
.	.	.	.	16cLL 16A 16F 16D\	.	.
.	.	.	.	16c 16A 16F 16D\	32dddd\LL]	.
.	.	.	.	.	32cccc\	.
.	.	.	.	16cJJ 16A 16F 16D\	32bbb-\	.
.	.	.	.	.	32ggg#X\JJJ	.
*	*	*	*	*tremolo	*	*
.	.	4aa\)	.	16cLL 16A 16F 16D\	32bbb-\LLL	.
.	.	.	.	.	32aaa\	.
.	.	.	.	16c 16A 16F 16D\	32eee#X\	.
.	.	.	.	.	32fff#X\	.
.	.	.	.	16c 16A 16F 16D\	32ggg#\	.
.	.	.	.	.	32fff#\	.
.	.	.	.	16cJJ 16A 16F 16D\	32ccc#X\	.
.	.	.	.	.	32ddd\JJJ	.
.	.	2f#Xt/	.	16DD/	32eeen\LLL	.
.	.	.	.	.	32ddd\	.
*	*	*	*	*	*X8va	*
!	!	!	!	!LO:N:vis=4.	!LO:TX:a:t=loco	!
.	.	.	.	16cLL 16A 16C\	32bb-\	.
.	.	.	.	.	32ccc\	.
.	.	.	.	16c 16A 16C\	32gg#X\	.
.	.	.	.	.	32aa\	.
.	.	.	.	16cJJ 16A 16C\	32ee#X\	.
.	.	.	.	.	32ff#\JJJ	.
.	.	.	.	16cLL 16A 16D\	32cc#X\LLL	.
.	.	.	.	.	32dd\	.
.	.	.	.	16c 16A 16D\	32b-\	.
.	.	.	.	.	32cc#\	.
.	.	.	.	16c 16A 16D\	32g#X\	.
.	.	.	.	.	32a\	.
.	.	.	.	16cJJ 16A 16D\	32en\	.
.	.	.	.	.	32f#X\JJJ	.
.	.	16qqe/LL	.	.	.	.
.	.	16qqf#/JJ	.	.	.	.
=26	=26	=26	=26	=26	=26	=26
*	*	*	*	*^	*	*
!	!	!	!	!	!LO:N:vis=2	!	!
4B-\)	.	4g/	f	2G/	16G\LL	16g\LL)	f
!	!	!	!	!	!	!LO:TUP:a:problem:klamra łukowa	!
.	.	.	.	.	16d 16B-\	96r	.
.	.	.	.	.	.	(96b-\LL	<
.	.	.	.	.	.	96cc\	.
.	.	.	.	.	.	96dd\	.
!LO:TX:a:t=ed energico	!	!	!	!	!	!LO:TX:b:t=e energico	!
.	.	.	.	.	.	96ee\	.
.	.	.	.	.	.	96ff#X\JJJJ	.
.	.	.	.	.	16d 16B-\	8gg'\L)	[
.	.	.	.	.	16dJJ 16B-\	.	<
!	!	!	!	!	!	!LO:TUP:a:problem:klamra łukowa	!
4r	.	4r	.	.	16dLL 16B-\	96r	.
.	.	.	.	.	.	(96bb-\LLL	.
.	.	.	.	.	.	96ccc\	.
.	.	.	.	.	.	96ddd\	.
.	.	.	.	.	.	96eee\	.
.	.	.	.	.	.	96fff\JJJJ	.
!	!	!	!	!	!	!LO:TX:t=P:problem:mixed beam	!
.	.	.	.	.	16d 16B-\	16ggg\LL)	[
!	!	!	!	!	!	!LO:N:vis=32	!
.	.	.	.	.	16d 16B-\	16r	.
!	!	!	!	!	!	!LO:N:vis=32	!
.	.	.	.	.	16dJJ 16B-\	16g/JJ	.
*	*	*Xtuplet	*	*	*Xtremolo	*	*
8GG/L	.	16a-X\LL	.	8G/L	16G^\LL	4a-XT/	fz
.	.	112r	.	.	16e-X\	.	.
.	.	(112b-X\LL	.	.	.	.	.
.	.	112cc\	.	.	.	.	.
.	.	112dd-X\	.	.	.	.	.
.	.	112ee-X\	.	.	.	.	.
.	.	112ff\	.	.	.	.	.
.	.	112gg\JJJJ	.	.	.	.	.
8GG-X/J	.	16aa\LL)	.	8G-X/J	16G-^\	.	.
.	.	96r	.	.	16e-JJ 16c\	.	.
.	.	(96ee-\LL	.	.	.	.	.
.	.	96ff\	.	.	.	.	.
.	.	96gg\	.	.	.	.	.
.	.	96aa\	.	.	.	.	.
.	.	96bb-\JJJJ)	.	.	.	.	.
.	.	.	.	.	.	16qqg/LL	.
!	!	!LO:TX:t=P:problem:mixed beam	!	!	!	!	!
.	.	.	.	.	.	16qqa-/JJ	.
4FF/	.	8ccc\L	.	4F/	16F\LL	4ant/	fz
.	.	.	.	.	16e- 16c\	.	.
.	.	(<8e-XT/J	.	.	16e- 16c\	.	.
.	.	.	.	.	16e-JJ 16c\	.	.
.	.	.	.	.	.	16qqg/LL	.
.	.	.	.	.	.	16qqa/JJ	.
=27	=27	=27	=27	=27	=27	=27	=27
2BB-X/	.	4d/)	.	16BB-X/	2ryy	16b-X\LL	.
!	!	!	!	!	!	!LO:N:vis=16	!
.	.	.	.	16fLL 16d-X 16B-\	.	64r	<
.	.	.	.	.	.	(64b-\LL	.
.	.	.	.	.	.	64cc\	.
.	.	.	.	.	.	64dd\	.
.	.	.	.	16f 16d- 16B-\	.	64ee-X\	.
.	.	.	.	.	.	64ff\	.
.	.	.	.	.	.	64gg\	[
.	.	.	.	.	.	64aa\JJJJ	.
.	.	.	.	16fJJ 16d- 16B-\	.	16bb-\LL)	<
.	.	4r	.	16fLL 16d- 16B-\	.	32r	.
.	.	.	.	.	.	(64bb-\LL	.
.	.	.	.	.	.	64ccc\	.
.	.	.	.	16f 16d- 16B-\	.	64ddd\	.
.	.	.	.	.	.	64eee\	[
.	.	.	.	.	.	64fff\	.
.	.	.	.	.	.	64ggg\	.
.	.	.	.	16f 16d- 16B-\	.	64aaa\JJJJ	.
.	.	.	.	.	.	16bbb-X\LL)	.
.	.	.	.	16fJJ 16d- 16B-\	.	.	.
!	!	!	!	!	!	!LO:N:vis=16r	!
.	.	.	.	.	.	32r	.
!	!	!	!	!	!	!LO:N:vis=32	!
.	.	.	.	.	.	64b-\JJkk	.
8AAn/L	.	16bn\LL	.	8An/L	16An\LL	4bnt\	fz
.	.	80r	.	.	16f 16d-\	.	.
.	.	(80b\LL	.	.	.	.	.
.	.	80cc\	.	.	.	.	.
.	.	80dd\	.	.	.	.	.
.	.	80ee-X\JJJJ	.	.	.	.	.
8AA-X/J	.	16ff'\LL)	.	8A-X/J	16A-\	.	.
!	!	!LO:N:vis=64	!	!	!	!	!
.	.	128r	.	.	16fJJ 16d-\	.	.
!	!	!LO:N:vis=64	!	!	!	!	!
.	.	(128dd\LLL	.	.	.	.	.
!	!	!LO:N:vis=64	!	!	!	!	!
.	.	128ee-\	.	.	.	.	.
!	!	!LO:N:vis=64	!	!	!	!	!
.	.	128ff\	.	.	.	.	.
!	!	!LO:N:vis=64	!	!	!	!	!
.	.	128gg\	.	.	.	.	.
!	!	!LO:N:vis=64	!	!	!	!	!
.	.	128aa\	.	.	.	.	.
!	!	!LO:N:vis=64	!	!	!	!	!
.	.	128bbn\	.	.	.	.	.
!	!	!LO:N:vis=64	!	!	!	!	!
.	.	128ccc\JJJJJ	.	.	.	.	.
.	.	.	.	.	.	16qqa/LL	.
!	!	!LO:TX:t=P:problem:mixed beam	!	!	!	!	!
.	.	.	.	.	.	16qqb/JJ	.
4GG/	.	8ddd'\L)	.	4G/	16G\LL	4bb-T\	fz
.	.	.	.	.	16f 16d-\	.	.
.	.	(8f/J	.	.	16f 16d-\	.	.
.	.	.	.	.	16fJJ 16d-\	.	.
.	.	.	.	.	.	16qqaa/LL	.
.	.	.	.	.	.	16qqbb-/JJ	.
=	=	=	=	=	=	=	=
!	!	!	!	!	!LO:N:vis=2	!	!
2C/	.	4e-X/)	.	2C/	16C\LL	16ccc\LL	.
.	.	.	.	.	16c 16G 16E-X\	16r	.
*	*	*	*	*	*	*8va	*
!	!	!	!	!	!	!LO:N:vis=64	!
.	.	.	.	.	16c 16G 16E-\	(32ccc\L	.
!	!	!	!	!	!	!LO:N:vis=64	!
.	.	.	.	.	.	32ddd\	.
!	!	!	!	!	!	!LO:N:vis=64	!
.	.	.	.	.	16cJJ 16G 16E-\	32eee-X\	.
!	!	!	!	!	!	!LO:N:vis=64	!
.	.	.	.	.	.	32fff\JJJ	.
*	*	*	*	*tremolo	*	*	*
.	.	4r	.	.	16c 16G 16E-\LL	32ggg\LLL)	.
.	.	.	.	.	.	32r	.
.	.	.	.	.	16c 16G 16E-\	80eee-\L	.
.	.	.	.	.	.	80fff\	.
.	.	.	.	.	.	80ggg\	.
.	.	.	.	.	.	80aaa\	.
.	.	.	.	.	.	80bbb-\JJJJ	.
.	.	.	.	.	16c 16G 16E-\	16cccc\LL	.
*	*	*	*	*	*	*X8va	*
.	.	.	.	.	16c 16G 16E-\JJ	32r	.
!	!	!	!	!	!	!LO:TX:a:t=loco	!
.	.	.	.	.	.	32cc\JJk	.
!!LO:PB:g=original
=28	=28	=28	=28	=28	=28	=28	=28
!	!	!	!	!	!LO:N:vis=2	!	!
2AA-X/	.	(16cc\LL	.	2AA-X/	16AA-\LL	8..ee-XT\L	.
.	.	112r	.	.	16c 16A-X 16E-X\	.	.
.	.	112dd\LL	.	.	.	.	.
!	!LO:HP:a:t=dim	!	!	!	!	!	!
.	>	112ee-X\	.	.	.	.	.
.	.	112ff\	.	.	.	.	.
.	.	112gg\	.	.	.	.	.
.	.	112aa\	.	.	.	.	.
.	.	112bbn\JJJ	.	.	.	.	.
.	.	8ccc'\J)	.	.	16c 16A- 16E-\	.	.
!	!	!	!	!	!	!	!LO:HP:t=dim
.	.	.	.	.	16cJJ 16A- 16E-\	.	>
.	.	.	.	.	.	64dd\LLL	.
.	.	.	.	.	.	(64cc\JJJJ	.
.	.	8..e-yT/L	.	.	16c 16A- 16E-\LL	8.cccc\L)	.
.	.	.	.	.	16c 16A- 16E-\	.	.
.	.	.	.	.	16c 16A- 16E-\	.	.
.	.	.	.	.	16c 16A- 16E-\JJ	16ff#X\Jk	.
*	*	*	*	*	*Xtremolo	*	*
.	.	64d/LLL	.	.	.	.	.
.	.	64c/JJJJ	.	.	.	.	.
=29	=29	=29	=29	=29	=29	=29	=29
!	!LO:DY:a	!	!LO:DY:a	!	!	!	!
[>1GG	p	8Bn/L	p	16GG/	4ryy	(4ggT\	p
.	.	.	.	16gLL 16d 16B-\	.	.	.
.	.	32r	.	16g 16d 16B-\	.	.	.
.	.	(>32d/LL	.	.	.	.	.
.	.	32e/	.	16gJJ 16d 16B-\	.	.	.
.	.	32f#X/JJJ	.	.	.	.	.
.	.	.	.	.	.	32qqff#X/LLL	.
.	.	.	.	.	.	32qqgg/	.
.	.	.	.	.	.	32qqbb-/	.
!	!	!	!	!	!	!LO:TX:b:t=poco a poco cres-:problem:dynamics with extention lines	!LO:HP:t=poco a poco cres-
.	.	.	.	.	.	32qqddd/JJJ	<
.	.	16g/LL)	.	4G/	16G\LL	8ggg'\)	.
!	!LO:HP:a:t=poco a poco cres	!	!	!	!	!	!
.	<	80r	.	.	16g 16d 16B-\	.	.
.	.	(80g/LL	.	.	.	.	.
.	.	80a/	.	.	.	.	.
.	.	80b-/	.	.	.	.	.
.	.	80cc/JJJ	.	.	.	.	.
.	.	8dd/J)	.	.	16g 16d 16B-\	8r	.
.	.	.	.	.	16gJJ 16d 16B-\	.	.
!	!	!	!	!	!LO:N:vis=2	!	!
.	.	8.r	.	2G/	16G\LL	4aat\	.
.	.	.	.	.	16f#X 16d 16c\	.	.
.	.	.	.	.	16f# 16d 16c\	.	.
.	.	64f#X/LLLL	.	.	16f#JJ 16d 16c\	.	.
.	.	64g/	.	.	.	.	.
.	.	64a/	.	.	.	.	.
.	.	64b-/JJJJ	.	.	.	.	.
.	.	.	.	.	.	(>32qqgg#X/LLL	.
.	.	.	.	.	.	32qqaa/	.
.	.	.	.	.	.	32qqccc/	.
.	.	.	.	.	.	32qqfff#X/JJJ	.
*	*	*	*	*	*tremolo	*	*
.	.	16cc\LL	.	.	16f# 16d 16c\LL	8aaa'\)	.
.	.	80r	.	.	16f# 16d 16c\	.	.
!	!	!LO:TX:Bi:t=cres_:problem:dynamics with extention lines	!LO:HP:a:t=cres_	!	!	!	!
.	.	(80a\LL	<	.	.	.	.
.	.	80b-\	.	.	.	.	.
.	.	80cc\	.	.	.	.	.
.	.	80dd\JJJ	.	.	.	.	.
.	.	8ee'\J)	.	.	16f# 16d 16c\	8r	.
.	.	.	.	.	16f# 16d 16c\JJ	.	.
=30	=30	=30	=30	=30	=30	=30	=30
*	*	*	*	*	*	*8va	*
!	!	!	!	!	!LO:N:vis=2	!	!
1GG_>	.	8.r	.	2G/	16G\LL	4bbnt\	.
.	.	.	.	.	16fn 16d 16B-\	.	.
.	.	.	.	.	16f 16d 16B-\	.	.
.	.	(64g\LLLL	.	.	16fJJ 16d 16B-\	.	.
.	.	64a\	.	.	.	.	.
.	.	64b-\	.	.	.	.	.
.	.	64cc\JJJJ	.	.	.	.	.
.	.	.	.	.	.	(>32qqaa#X/LLL	.
.	.	.	.	.	.	32qqbb/	.
.	.	.	.	.	.	32qqddd/	.
.	.	.	.	.	.	32qqggg/JJJ	.
*	*	*	*	*	*tremolo	*	*
.	.	16dd\LL)	.	.	16f 16d 16B-\LL	8bbb-'\)	.
.	.	80r	.	.	16f 16d 16B-\	.	.
.	.	(80b-\LL	.	.	.	.	.
.	.	80cc\	.	.	.	.	.
.	.	80dd\	.	.	.	.	.
.	.	80ee\JJJ	.	.	.	.	.
.	.	8ff'\J)	.	.	16f 16d 16B-\	8r	.
.	.	.	.	.	16f 16d 16B-\JJ	.	.
!	!	!	!	!	!LO:N:vis=2	!	!
.	.	8.r	.	2G/	16G\LL	4cccT\	.
.	.	.	.	.	16e 16c\	.	.
.	.	.	.	.	16e 16c\	.	.
.	.	(48g/LLL	.	.	16eJJ 16c\	.	[
.	.	48a/	.	.	.	.	.
.	.	48b-/JJJ	.	.	.	.	.
.	.	.	.	.	.	32qqbb/LLL	.
.	.	.	.	.	.	32qqccc/	.
.	.	.	.	.	.	32qqeee/	.
.	.	.	.	.	.	32qqggg/JJJ	.
.	.	16cc\LL)	.	.	16e 16c\LL	8cccc\	.
.	.	80r	.	.	16e 16c\	.	.
.	.	(80cc\LL	.	.	.	.	.
.	.	80dd\	.	.	.	.	.
.	.	80ee\	.	.	.	.	.
.	.	80ff\JJJ	[	.	.	.	.
.	.	8gg\J)	.	.	16e 16c\	8r	.
.	.	.	.	.	16e 16c\JJ	.	.
*	*	*	*	*Xtremolo	*Xtremolo	*	*
*	*	*	*	*v	*v	*	*
=31	=31	=31	=31	=31	=31	=31
.	.	.	.	.	16qqggg/LL	f
.	.	.	.	.	16qqbbb-/	.
!	!	!	!	!	!LO:N:vis= 8.	!
.	.	.	.	.	16qqdddd/JJ	.
!	!	!	!LO:DY:rj	!	!	!LO:DY:b=2
4GG/]	.	4f 4G/	f	4d 4B- 4G\	8ffff\L	f
.	.	.	.	.	32r	.
.	.	.	.	.	(48cccc#X\LL	.
.	.	.	.	.	48dddd\	.
.	.	.	.	.	48eeee\JJJ	.
.	.	.	.	.	16ffff'\LL)	.
4r	.	4r	.	4r	.	.
.	.	.	.	.	32r	.
.	.	.	.	.	(48bbb-\L	.
.	.	.	.	.	48ccccn\	.
.	.	.	.	.	48cccc#X\JJJ	.
.	.	.	.	.	16dddd'\LL)	.
.	.	.	.	.	32r	.
.	.	.	.	.	(48ggg\L	.
.	.	.	.	.	48aaa\	.
2r	.	2r	.	2r	.	.
.	.	.	.	.	48aaa#X\JJJ	.
!	!	!	!	!	!LO:N:vis=8.	!
.	.	.	.	.	8bbb-'\L)	.
.	.	.	.	.	32r	.
.	.	.	.	.	(48ddd\LL	.
.	.	.	.	.	48ddd#X\	.
.	.	.	.	.	48eee\JJJ	.
.	.	.	.	.	8fff'\L)	.
.	.	.	.	.	32r	.
.	.	.	.	.	(32bb-\LL	.
.	.	.	.	.	32ccc\	.
.	.	.	.	.	32ccc#X\JJJ	.
=32	=32	=32	=32	=32	=32	=32
2r	.	1r	.	1r	8ddd\L)	.
*	*	*	*	*	*X8va	*
.	.	.	.	.	32r	.
.	.	.	.	.	(48dd\LL	.
.	.	.	.	.	48dd#X\	.
.	.	.	.	.	48ee\JJJ	.
.	.	.	.	.	16ff'\LL)	.
.	.	.	.	.	32r	.
.	.	.	.	.	(48b-\L	.
.	.	.	.	.	48cc\	.
.	.	.	.	.	48cc#X\JJJ	.
.	.	.	.	.	16dd#/LL)	.
.	.	.	.	.	40r	.
.	.	.	.	.	(>80f#X/LL	.
.	.	.	.	.	80g/	.
.	.	.	.	.	80a/JJJJ	.
8.r	.	.	.	.	8g/)	.
.	.	.	.	.	8r	.
(64f\LLLL	>	.	.	.	.	.
64e\	.	.	.	.	.	.
64d\	.	.	.	.	.	.
64c\JJJJ	]	.	.	.	.	.
(16B-'\LL)	.	.	.	.	4r	.
!LO:N:vis=32	!	!	!	!	!	!
64d\LL	.	.	.	.	.	.
!LO:N:vis=32	!	!	!	!	!	!
64c\	.	.	.	.	.	.
!LO:N:vis=32	!	!	!	!	!	!
64B-\	.	.	.	.	.	.
!LO:N:vis=32	!	!	!	!	!	!
64A\JJJJ)	.	.	.	.	.	.
16G'\LL	.	.	.	.	.	.
!LO:N:vis=32	!	!	!	!	!	!
(64G\LL	.	.	.	.	.	.
!LO:N:vis=32	!	!	!	!	!	!
64F\	.	.	.	.	.	.
!LO:N:vis=32	!	!	!	!	!	!
64E\	.	.	.	.	.	.
!LO:N:vis=32	!	!	!	!	!	!
64D\JJJJ)	.	.	.	.	.	.
!!LO:PB:g=original
=33	=33	=33	=33	=33	=33	=33
*	*	*	*	*^	*	*
4C/	.	(4gg\	.	16E/LL	2C\	4gT/	.
.	.	.	.	16G/	.	.	.
.	.	.	.	16c/	.	.	.
.	.	.	.	16G/JJ	.	.	.
.	.	.	.	.	.	16qqf#X/LL	.
.	.	.	.	.	.	16qqg/	.
.	.	.	.	.	.	16qqcc/	.
.	.	.	.	.	.	16qqee/JJ	.
*	*	*	*	*rep	*	*	*
4r	.	4ccc\)	.	16E/LL	.	16gg\LL	.
.	.	.	.	16G/	.	96r	.
.	.	.	.	.	.	(96ee\LL	.
.	.	.	.	.	.	96ff\	.
.	.	.	.	.	.	96gg\	.
.	.	.	.	.	.	96aa\	.
.	.	.	.	.	.	96bbn\JJJJ	.
.	.	.	.	16c/	.	16ccc'\LL)	.
.	.	.	.	16G/JJ	.	96r	.
*	*	*	*	*Xrep	*	*	*
.	.	.	.	.	.	(96gg\LL	.
.	.	.	.	.	.	96aa\	.
.	.	.	.	.	.	96bb\	.
.	.	.	.	.	.	96ccc\	.
.	.	.	.	.	.	96ddd\JJJJ	.
!	!	!	!	!	!	!LO:N:vis=8	!
2r	.	(2ccT\	.	16E/LL	2C\	16eee\LL)	.
.	.	.	.	16G/	.	40r	.
*	*	*	*	*	*	*8va	*
.	.	.	.	.	.	(40ccc\L	.
.	.	.	.	.	.	40ddd\	.
.	.	.	.	16c/	.	.	.
.	.	.	.	.	.	40eee\	.
.	.	.	.	.	.	40fff\JJJ	.
.	.	.	.	16G/JJ	.	16ggg'\LL)	.
.	.	.	.	16GLL 16E/	.	80r	.
.	.	.	.	.	.	(80eee\LL	.
.	.	.	.	.	.	80fff\	.
.	.	.	.	.	.	80ggg\	.
.	.	.	.	.	.	80aaa\	.
.	.	.	.	16G/	.	64bbb\JJJJ	.
.	.	.	.	.	.	16cccc\LL)	.
.	.	.	.	16c/	.	.	.
.	.	.	.	.	.	64r	.
.	.	.	.	.	.	(64ggg\LL	.
.	.	.	.	.	.	64aaa\	.
.	.	.	.	16G/JJ	.	64bbb\	.
.	.	.	.	.	.	64cccc\	.
.	.	.	.	.	.	64dddd\	.
.	.	.	.	.	.	64eeee\JJJJ	.
.	.	16qqbn/LL	.	.	.	.	.
.	.	16qqcc/JJ)	.	.	.	.	.
=34	=34	=34	=34	=34	=34	=34	=34
(4d\	.	4g/	.	16F/LL	2BBn\	[8ffff\L)	.
.	.	.	.	16G/	.	.	.
*	*	*	*	*	*	*tuplet	*
!	!	!	!	!	!	!LO:TUP:a	!
.	.	.	.	16d/	.	(48ffff\LL]	.
.	.	.	.	.	.	48eeee\	.
.	.	.	.	.	.	48eeee-X\	.
.	.	.	.	16G/JJ	.	48dddd\	.
.	.	.	.	.	.	48dddd-X\	.
.	.	.	.	.	.	48cccc\JJJ)	.
*	*	*	*	*rep	*	*	*
!	!	!	!	!	!	!LO:N:vis=8	!
4g\)	.	4r	.	16F/LL	.	[16bbbn\LL	.
!	!	!	!	!	!	!LO:TUP:a	!
.	.	.	.	16G/	.	(48bbb\L]	.
.	.	.	.	.	.	48bbb-X\	.
.	.	.	.	.	.	48aaa\	.
.	.	.	.	16d/	.	48aaa-X\	.
.	.	.	.	.	.	48ggg\	.
.	.	.	.	.	.	48ggg-X\	.
.	.	.	.	16G/JJ	.	48fff\	.
.	.	.	.	.	.	48eee\	.
.	.	.	.	.	.	48eee-X\JJJ)	.
*	*	*	*	*Xrep	*	*X8va	*
!	!	!	!	!	!	!LO:TX:a:t=loco	!
(2GT\	.	2r	.	16F/LL	2BB\	16dddn\LL	.
.	.	.	.	16G/	.	64eee-\LL	.
.	.	.	.	.	.	64ddd\	.
.	.	.	.	.	.	64ccc#X\	.
.	.	.	.	.	.	64cccn\JJJJ	.
.	.	.	.	16d/	.	16.bbny\LL	.
.	.	.	.	16G/JJ	.	.	.
*	*	*	*	*	*	*Xtuplet	*
.	.	.	.	.	.	96bb-\LL	.
.	.	.	.	.	.	96aan\	.
.	.	.	.	.	.	96aa-X\JJJJ	.
*	*	*	*	*	*	*tuplet	*
!	!	!	!	!	!	!LO:TUP:a	!
.	.	.	.	16F/LL	.	(60ggny\LLL	.
.	.	.	.	.	.	60gg-X\	.
.	.	.	.	.	.	60ff\	.
.	.	.	.	.	.	60eeny\	.
.	.	.	.	16G/	.	.	.
.	.	.	.	.	.	60ee-X\	.
.	.	.	.	.	.	60dd\	.
.	.	.	.	.	.	60dd-X\	.
.	.	.	.	.	.	60ccn\	.
.	.	.	.	16d/	.	.	.
.	.	.	.	.	.	60b-\	.
.	.	.	.	.	.	60b-X\	.
.	.	.	.	.	.	60a\	.
.	.	.	.	.	.	60a-X\	.
.	.	.	.	16G/JJ	.	.	.
.	.	.	.	.	.	60g\	.
.	.	.	.	.	.	60g-X\	.
.	.	.	.	.	.	60f\JJJ)	.
16qqF#X/LL	.	.	.	.	.	.	.
16qqG/JJ)	.	.	.	.	.	.	.
=35	=35	=35	=35	=35	=35	=35	=35
4C/	.	(4gg\	.	16E/LL	2C\	8e/L	.
.	.	.	.	16G/	.	.	.
*	*	*	*	*	*	*Xtuplet	*
.	.	.	.	16c/	.	48r	.
.	.	.	.	.	.	48g/LL	.
.	.	.	.	.	.	48a/	.
!	!	!	!	!	!	!LO:TX:b:t=P:problem:♮ below	!
.	.	.	.	16G/JJ	.	48bn/	.
.	.	.	.	.	.	48cc/	.
.	.	.	.	.	.	48dd/JJJ	.
*	*	*	*	*rep	*	*	*
4r	.	4ccc\)	.	16E/LL	.	16ee\LL	.
.	.	.	.	16G/	.	80r	.
.	.	.	.	.	.	(80cc\LL	.
.	.	.	.	.	.	80dd\	.
.	.	.	.	.	.	80ee\	.
.	.	.	.	.	.	80ff\JJJJ	.
!	!	!	!	!	!	!LO:N:vis=8	!
.	.	.	.	16c/	.	16gg'\LL	.
.	.	.	.	16G/JJ	.	96r	.
*	*	*	*	*Xrep	*	*	*
.	.	.	.	.	.	(96ee\LL)	.
.	.	.	.	.	.	96ff\	.
.	.	.	.	.	.	96gg\	.
.	.	.	.	.	.	96aa\	.
.	.	.	.	.	.	96bb-\JJJJ	.
2r	.	(4ccTT\	.	16E/LL	2C\	8ccc\L)	.
.	.	.	.	16G/	.	.	.
!	!	!	!	!	!	!LO:N:vis=40	!
.	.	.	.	16c/	.	80r	.
*	*	*	*	*	*	*8va	*
.	.	.	.	.	.	(80ccc\LLL	.
.	.	.	.	.	.	80ddd\	.
.	.	.	.	.	.	80eee\	.
.	.	.	.	.	.	80fff\JJJJ	.
.	.	.	.	16G/JJ	.	16ggg'\LL)	.
*	*	*	*	*rep	*	*	*
.	.	8ddTT\L	.	16E/LL	.	80r	.
.	.	.	.	.	.	(80eee\LL	.
.	.	.	.	.	.	80fff\	.
.	.	.	.	.	.	80ggg\	.
.	.	.	.	.	.	80aaa\	.
.	.	.	.	16G/	.	64bbb-\JJJJ	.
.	.	.	.	.	.	16cccc'\LL)	.
.	.	8ee\J)	.	16c/	.	.	.
.	.	.	.	.	.	64r	.
.	.	.	.	.	.	(64ggg\LL	.
.	.	.	.	.	.	64aaa\	.
.	.	.	.	16G/JJ	.	64bbb-\	.
*	*	*	*	*Xrep	*	*	*
.	.	.	.	.	.	64cccc\	.
.	.	.	.	.	.	64dddd\	.
.	.	.	.	.	.	64eeee\JJJJ	.
!!LO:PB:g=original
=36	=36	=36	=36	=36	=36	=36	=36
(4d\	.	4dd\	.	16F/LL	2BBn\	[8ffff\L	.
.	.	.	.	16G/	.	.	.
.	.	.	.	16d/	.	64ffff\LLL]	.
!	!	!	!	!	!	!LO:TX:b:i:t=legatiſsimo	!
.	.	.	.	.	.	64dddd\	.
.	.	.	.	.	.	64cccc#X\	.
.	.	.	.	.	.	64eeee\	.
.	.	.	.	16G/JJ	.	64dddd\	.
.	.	.	.	.	.	64bbb-\	.
.	.	.	.	.	.	64aaa#X\	.
.	.	.	.	.	.	64cccc#\JJJJ)	.
*	*	*	*	*rep	*	*	*
!	!	!	!	!	!	!LO:N:vis=8	!
4g\)	.	4r	.	16F/LL	.	([8bbbn\L	.
.	.	.	.	16G/	.	.	.
.	.	.	.	16d/	.	64bbb\LLL]	.
.	.	.	.	.	.	64ggg\	.
.	.	.	.	.	.	64fff#X\	.
.	.	.	.	.	.	64aaa#\	.
.	.	.	.	16G/JJ	.	64ggg\	.
*	*	*	*	*Xrep	*	*	*
.	.	.	.	.	.	64ddd\	.
.	.	.	.	.	.	64ccc#X\	.
.	.	.	.	.	.	64eee\JJJJ)	.
2GT\	.	2r	.	16F/LL	2BB\	([8ddd\L	.
.	.	.	.	16G/	.	.	.
.	.	.	.	16d/	.	64ddd\LLL]	.
*	*	*	*	*	*	*X8va	*
!	!	!	!	!	!	!LO:TX:a:t=loco	!
.	.	.	.	.	.	64bb-X\	.
.	.	.	.	.	.	64aa#X\	.
.	.	.	.	.	.	64ccc#\	.
.	.	.	.	16G/JJ	.	64bb-\	.
.	.	.	.	.	.	64gg\	.
.	.	.	.	.	.	64ff#\	.
.	.	.	.	.	.	64aa#\JJJJ	.
*	*	*	*	*rep	*	*	*
.	.	.	.	16F/LL	.	64gg\LLLL	.
.	.	.	.	.	.	64dd\	.
.	.	.	.	.	.	64cc#\	.
.	.	.	.	.	.	64ee\	.
.	.	.	.	16G/	.	64dd\	.
.	.	.	.	.	.	64b-\	.
.	.	.	.	.	.	64a#X\	.
.	.	.	.	.	.	64cc#\	.
.	.	.	.	16d/	.	64b-\	.
.	.	.	.	.	.	64g\	.
.	.	.	.	.	.	64f#X\	.
.	.	.	.	.	.	64a#\	.
.	.	.	.	16G/JJ	.	64g\	.
*	*	*	*	*Xrep	*	*	*
.	.	.	.	.	.	64d\	.
.	.	.	.	.	.	64g\	.
.	.	.	.	.	.	64fn\JJJJ)	.
16qqF#X/LL	.	.	.	.	.	.	.
16qqG/JJ	.	.	.	.	.	.	.
=37	=37	=37	=37	=37	=37	=37	=37
4C/	.	1r	.	16E/LL	2C\	(4e/	.
.	.	.	.	16G/	.	.	.
.	.	.	.	16c/	.	.	.
.	.	.	.	16G/JJ	.	.	.
.	.	.	.	.	.	32qqg/LLL	.
.	.	.	.	.	.	32qqcc/	.
.	.	.	.	.	.	32qqee/	.
.	.	.	.	.	.	32qqgg/	.
.	.	.	.	.	.	32qqccc/JJJ	.
*	*	*	*	*rep	*	*	*
4r	.	.	.	16E/LL	.	4eee\)	.
.	.	.	.	16G/	.	.	.
.	.	.	.	16c/	.	.	.
.	.	.	.	16G/JJ	.	.	.
*	*	*	*	*Xrep	*	*	*
.	.	.	.	.	.	(>32qqee/LLL	.
.	.	.	.	.	.	32qqff#X/	.
.	.	.	.	.	.	32qqgg#X/	.
.	.	.	.	.	.	32qqaa/JJJ	.
2r	.	.	.	16E/LL	2BBn\	4gg#yt\)	.
.	.	.	.	16G#X/	.	.	.
.	.	.	.	16d/	.	.	.
.	.	.	.	16G#/JJ	.	.	.
.	.	.	.	.	.	(>32qqff#/LLL	.
.	.	.	.	.	.	32qqgg#/	.
.	.	.	.	.	.	32qqaa/	.
.	.	.	.	.	.	32qqbb-/JJJ	.
*	*	*	*	*rep	*	*	*
.	.	.	.	16E/LL	.	8.ee\L)	.
.	.	.	.	16G#/	.	.	.
.	.	.	.	16d/	.	.	.
.	.	.	.	16G#/JJ	.	16ee\Jk	.
*	*	*	*	*Xrep	*	*	*
=38	=38	=38	=38	=38	=38	=38	=38
1ryy	.	1ryy	.	16C/LL	4AA\	(4eet\	.
.	.	.	.	16E/	.	.	.
.	.	.	.	16A/	.	.	.
.	.	.	.	16E/JJ	.	.	.
.	.	.	.	.	.	32qqdd#X/LLL	.
.	.	.	.	.	.	32qqee/	.
.	.	.	.	.	.	32qqff#X/	.
.	.	.	.	.	.	32qqgg#X/	.
.	.	.	.	.	.	32qqaa/	.
.	.	.	.	.	.	32qqbb-/JJJ	.
.	.	.	.	16C/LL	4GG\	8.ccc\L)	.
.	.	.	.	16E-X/	.	.	.
.	.	.	.	16A/	.	.	.
.	.	.	.	16E-/JJ	.	16ccc\Jk	.
.	.	.	.	16C/LL	2FF#X\	4dd#yt\	.
.	.	.	.	16D/	.	.	.
.	.	.	.	16A/	.	.	.
.	.	.	.	16D/JJ	.	.	.
.	.	.	.	.	.	32qqcc#X/LLL	.
.	.	.	.	.	.	32qqdd#/	.
.	.	.	.	.	.	32qqff#X/	.
.	.	.	.	.	.	32qqaa/JJJ	.
*	*	*	*	*rep	*	*	*
.	.	.	.	16C/LL	.	8.ddd\L	.
.	.	.	.	16D/	.	.	.
.	.	.	.	16A/	.	.	.
.	.	.	.	16D/JJ	.	16ccc\Jk	.
*	*	*	*	*Xrep	*	*	*
=39	=39	=39	=39	=39	=39	=39	=39
2r	.	2r	.	4GG/	16GG\LL	8..bbnt\L	.
.	.	.	.	.	16BBn\	.	.
.	.	.	.	.	16D\	.	.
.	.	.	.	.	16G\JJ	.	.
!	!	!	!	!	!	!LO:N:vis=32	!
.	.	.	.	.	.	64aa\LLL	.
!	!	!	!	!	!	!LO:N:vis=32	!
.	.	.	.	.	.	64gg\JJJJ	.
.	.	.	.	4G/	16G\LL	4ggg\	.
.	.	.	.	.	16Bn\	.	.
.	.	.	.	.	16d\	.	.
.	.	.	.	.	16B\JJ	.	.
2F\	.	2gT/	.	16G/LL	2F\	(32gg'\LLL	.
.	.	.	.	.	.	32ff#X'\	.
.	.	.	.	16B/	.	32gg'\	.
.	.	.	.	.	.	32aa'\	.
.	.	.	.	16d/	.	32bb'\	.
.	.	.	.	.	.	32ccc'\	.
.	.	.	.	16B/JJ	.	32ddd'\	.
.	.	.	.	.	.	32eee'\JJJ	.
*	*	*	*	*	*	*8va	*
.	.	.	.	16G/LL	.	32fff#'\LLL	.
.	.	.	.	.	.	32fff#X'\	.
.	.	.	.	16B/	.	32ggg'\	.
.	.	.	.	.	.	32aaa'\	.
.	.	.	.	16d/	.	32bbb'\	.
.	.	.	.	.	.	32cccc'\	.
.	.	.	.	16B/JJ	.	32dddd'\	.
.	.	.	.	.	.	[32ffff#X'\JJJ	.
.	.	16qqf#X/LL	.	.	.	.	.
.	.	16qqg/JJ	.	.	.	.	.
!!LO:PB:g=original
=40	=40	=40	=40	=40	=40	=40	=40
(4E\	.	(>4g/	.	16G/LL	4E\	32ffff#\LLL]	.
.	.	.	.	.	.	32eeee\	.
.	.	.	.	16c/	.	32ddddn\	.
.	.	.	.	.	.	32cccc\	.
.	.	.	.	16e/	.	32bbbn\	.
.	.	.	.	.	.	32cccc\	.
.	.	.	.	16c/JJ	.	32dddd\	.
.	.	.	.	.	.	32cccc\JJJ	.
4F\	.	4a/	.	16A/LL	4F\	32bbb\LLL	.
.	.	.	.	.	.	32aaa\	.
.	.	.	.	16c/	.	32ggg#X\	.
.	.	.	.	.	.	32aaa\	.
.	.	.	.	16f/	.	32eee\	.
.	.	.	.	.	.	32fff\	.
.	.	.	.	16d/JJ	.	32aa\	.
.	.	.	.	.	.	32ddd\JJJ	.
*	*	*	*	*	*	*X8va	*
!	!	!	!	!	!	!LO:TX:a:t=loco	!
4G\	.	4e/	.	16c/LL	2G\	16cccT\LL	.
.	.	.	.	16e/	.	32bb\L	.
.	.	.	.	.	.	32aa\	.
.	.	.	.	16g/	.	32ggny\	.
.	.	.	.	.	.	32ff#X\	.
.	.	.	.	16e/JJ	.	32aa\	.
.	.	.	.	.	.	32gg\JJJ	.
4GG/)	.	4d/)	.	16B-/LL	.	32ffn\LLL	.
.	.	.	.	.	.	32ee\	.
.	.	.	.	16d/	.	32dd\	.
.	.	.	.	.	.	32cc\	.
.	.	.	.	16f/	.	32b-\	.
.	.	.	.	.	.	32aa\	.
.	.	.	.	16d/JJ	.	32gg\	.
.	.	.	.	.	.	32ff\JJJ)	.
*	*	*	*	*v	*v	*	*
=41	=41	=41	=41	=41	=41	=41
!	!	!	!	!LO:TX:t=P:problem:mixed beam	!	!
4GG#X/	.	4e/	f	8GG#X/L	8ee\L	.
!	!	!	!	!LO:SIC:v:o=8g	!	!
.	.	.	.	[8g#yJ [8e 8Bn [8G#X\	[8eeeJ [8bbn [8ee\	fp
!	!	!	!	!LO:TX:t=P:problem:mixed beam	!	!
4r	.	4r	.	32g#]LLL 32e] 32B 32G#\]	32eee]LLL 32bb] 32ee\]	.
*	*	*	*	*clefG2	*	*
!	!	!	!	!	!LO:S:s=2:note:problem:note-level slur	!
.	.	.	.	(32g#X/	(32ddd (>32bb [32ee^<\	.
.	.	.	.	32a/)	32ccc) 32aa) 32ee\]	.
!	!	!	!	!	!LO:S:s=2:note:problem:note-level slur	!
.	.	.	.	(32G#/JJJ	(32ddJJJ (>32bny [32e\	.
.	.	.	.	32A/LLL)	32ccLLL) 32a) 32e^<\]	.
!	!	!	!	!	!LO:S:s=2:note:problem:note-level slur	!
.	.	.	.	(32g#/	(32ddd (>32bb [32ee\	.
.	.	.	.	32a/)	32ccc) 32aa) 32ee^<\]	.
!	!	!	!	!	!LO:S:s=2:note:problem:note-level slur	!
.	.	.	.	(32G#/JJJ	(32ddJJJ (>32b [32e\	.
2r	.	2r	.	8A/)	8ccL) 8a) 8e/]	.
*	*	*	*	*clefF4	*	*
!	!	!	!	!LO:N:vis=4	!	!
.	.	.	.	[8Gny [8GnyG/	[8cc#XJ [>8a [8e/	fz
.	.	.	.	16G]KL 16GG]	16cc#]KL 16a] 16e/]	.
.	.	.	.	8F 8FF/	8dd 8a 8d/	.
.	.	.	.	16C#XJk 16CC#X/	16eeJk 16a/	.
=42	=42	=42	=42	=42	=42	=42
*	*	*	*	*	*^	*^
!	!	!	!	!	!	!LO:TX:a:t=P:problem:w tym takcie oznaczenia trioli i crescenda nie wyświetlają się	!	!
2r	.	2r	.	8.D 8.DD/	8gg/L	4dd 4a\	.	.
.	.	.	.	.	16ff/Jk	.	.	.
.	.	.	.	32r	32r	.	.	.
*	*	*	*	*Xtuplet	*tuplet	*	*	*
*	*	*	*	*rscale:2	*rscale:2	*	*	*
!	!	!	!	!	!LO:TUP:a:problem:klamra łukowa	!	!	!LO:DY:b=2
.	.	.	.	96AA/LLLL	(<96A/LLL	.	.	f
!	!	!	!	!	!	!	!	!LO:HP:b=2
.	.	.	.	96BB-/	96B-/	.	<	<
.	.	.	.	96C#X/JJJJ	96c#X/JJJ	.	.	.
*	*	*	*	*rscale:1	*rscale:1	*	*	*
.	.	.	.	16D\LL	16d'</LL)	2.ryy	[	[
*	*	*	*	*	*tuplet	*	*	*
.	.	.	.	32qqA/LLL	(32qqa/LLL	.	.	.
!	!	!	!	!	!LO:TUP:b:problem:oznaczenie trioli, klamra łukowa	!	!LO:HP:b=2	!
.	.	.	.	32qqB-/	32qqb-/	.	<	<
.	.	.	.	32qqc#X/JJJ	32qqcc#X/JJJ	.	.	.
.	.	.	.	16d\JJ	16dd/JJ)	.	[	[
*	*	*	*	*tuplet	*	*	*	*
*	*	*	*	*clefG2	*	*	*	*
!	!	!	!	!LO:TUP:a:problem:oznaczenie trioli, klamra łukowa	!	!	!	!
.	.	.	.	16qqa/LL	(>32qqaa/LLL	.	.	.
!	!	!	!	!	!	!	!	!LO:HP:b=2
.	.	.	.	16qqb-/	32qqbb-/	.	<	<
.	.	.	.	16qqcc#X/JJ	32qqccc#X/JJJ	.	.	.
.	.	.	.	8dd\	8ddd\)	.	[	[
*	*	*tuplet	*	*	*	*	*	*
.	.	(16qqA/LL	p	.	.	.	.	.
.	.	16qqB-/	.	.	.	.	.	.
.	.	16qqc#X/JJ	.	.	.	.	.	.
4r	.	8d/)	.	2r	2r	.	.	.
.	.	8r	.	.	.	.	.	.
(>16qqAA/LL	p	.	.	.	.	.	.	.
16qqBB-/	.	.	.	.	.	.	.	.
16qqC#X/JJ	.	.	.	.	.	.	.	.
8D\)	.	4ryy	.	.	.	.	.	.
8r	.	.	.	.	.	.	.	.
*	*	*	*	*	*	*	*v	*v
*	*	*	*	*	*v	*v	*
*	*	*	*	*clefF4	*	*
=43	=43	=43	=43	=43	=43	=43
*	*	*	*	*^	*	*
1ryy	.	1ryy	.	4F/	16F\LL	([8dd\L	.
.	.	.	.	.	16A\	.	.
.	.	.	.	.	16d\	32dd\LL]	.
.	.	.	.	.	.	32ee'\	.
.	.	.	.	.	16A\JJ	32dd'\	.
.	.	.	.	.	.	32cc#X'\JJJ	.
*	*	*	*	*rep	*rep	*	*
.	.	.	.	4F/	16F\LL	32dd'\LLL	.
.	.	.	.	.	.	32a'\	.
.	.	.	.	.	16A\	32bn'\	.
.	.	.	.	.	.	32cc#'\	.
.	.	.	.	.	16d\	32dd'\	.
.	.	.	.	.	.	32ee'\	.
.	.	.	.	.	16A\JJ	32ff'\	.
*	*	*	*	*Xrep	*Xrep	*	*
.	.	.	.	.	.	32gg'\JJJ	.
*	*	*	*	*rep	*rep	*	*
.	.	.	.	4F/	16F\LL	(32gg#X\LLL)	.
.	.	.	.	.	.	32aa\	.
.	.	.	.	.	16A\	32bb-\	.
.	.	.	.	.	.	32ccc#X\	.
.	.	.	.	.	16d\	32ddd\	.
.	.	.	.	.	.	32eee\	.
*	*	*	*	*	*	*8va	*
.	.	.	.	.	16A\JJ	32fff\	.
*	*	*	*	*Xrep	*Xrep	*	*
.	.	.	.	.	.	32ggg#\JJJ	.
*	*	*	*	*rep	*rep	*	*
.	.	.	.	4F/	16F\LL	32ggg#X\LLL	.
.	.	.	.	.	.	32aaa\	.
.	.	.	.	.	16A\	32ffff\	.
.	.	.	.	.	.	32eeee\	.
.	.	.	.	.	16d\	32dddd\	.
.	.	.	.	.	.	32cccc#\	.
.	.	.	.	.	16A\JJ	32bbb-\	.
*	*	*	*	*Xrep	*Xrep	*	*
.	.	.	.	.	.	32aaa\JJJ)	.
!!LO:PB:g=original
=44	=44	=44	=44	=44	=44	=44	=44
1r	.	1r	.	16G/LL	4G\	8ggg\L	.
.	.	.	.	16c/	.	.	.
.	.	.	.	16e/	.	[8eeee\J	.
.	.	.	.	16c/JJ	.	.	.
*	*	*	*	*clefG2	*	*	*
.	.	.	.	16c/LL	4G\	64eeee\LLLL]	.
.	.	.	.	.	.	64bbbn\	.
.	.	.	.	.	.	64cccc\	.
.	.	.	.	.	.	64fff#X\	.
.	.	.	.	16e/	.	64ggg\	.
.	.	.	.	.	.	64ddd#X\	.
.	.	.	.	.	.	64eee\	.
.	.	.	.	.	.	64bb-\	.
.	.	.	.	16g/	.	64ccc\	.
*	*	*	*	*	*	*X8va	*
!	!	!	!	!	!	!LO:TX:a:t=loco	!
.	.	.	.	.	.	64ff#X\	.
.	.	.	.	.	.	64gg\	.
.	.	.	.	.	.	64dd#\	.
.	.	.	.	16e/JJ	.	64ee\	.
.	.	.	.	.	.	64cc\	.
.	.	.	.	.	.	64ffn\	.
.	.	.	.	.	.	64ee\JJJJ	.
.	.	.	.	16c/LL	2G\	(2dd#t\	.
.	.	.	.	16d/	.	.	.
.	.	.	.	16f/	.	.	.
.	.	.	.	16d/JJ	.	.	.
.	.	.	.	16Bn/LL	.	.	.
.	.	.	.	16d/	.	.	.
.	.	.	.	16f/	.	.	.
.	.	.	.	16B/JJ	.	.	.
.	.	.	.	.	.	16qqcc#X/LL	.
.	.	.	.	.	.	16qqdd#/	.
.	.	.	.	.	.	16qqee/	.
.	.	.	.	.	.	16qqdd#/JJ	.
=45	=45	=45	=45	=45	=45	=45	=45
1r	.	4r	.	4e/	4c\	4cc\)	.
.	.	(4gg\	p	4r	4ryy	4r	.
.	.	8ccc\)	.	4r	2ryy	4r	.
.	.	8r	.	.	.	.	.
!	!	!	!	!LO:CL:ed	!	!	!
*	*	*	*	*clefF4	*	*	*
!	!	!	!	!	!	!	!LO:DY:rj
.	.	4r	.	(8FL 8FF'/	.	(>8aL 8d 8c'>/	p
.	.	.	.	8GJ 8GG'/)	.	8gJ 8d 8Bn'>/)	.
*	*	*	*	*v	*v	*	*
=46	=46	=46	=46	=46	=46	=46
4r	.	1r	.	4C 4CC/	4g 4e 4c/	.
(4G\	p	.	.	4r	4r	.
8c'\)	.	.	.	4r	4r	.
8r	.	.	.	.	.	.
4r	.	.	.	8AAL 8AAA\	8eL 8c 8F#X</	.
.	.	.	.	8GGJ 8GGG\	8dJ 8Bn 8Fn</	.
=47	=47	=47	=47	=47	=47	=47
1r	.	2r	.	8CC\L	16cLL 16G< 16E</	.
.	.	.	.	.	16c 16G< 16E</	.
.	.	.	.	32r	16c 16G< 16E</	.
.	.	.	.	(>32GG\LL	.	.
.	.	.	.	32AA\	16cJJ 16G< 16E</	.
.	.	.	.	32BBn\JJJ	.	.
*	*	*	*	*	*tremolo	*
.	.	.	.	8..CT\L)	16cLL 16G< 16E</	.
.	.	.	.	.	16c 16G< 16E</	.
.	.	.	.	.	16c 16G< 16E</	.
.	.	.	.	.	16cJJ 16G< 16E</	.
.	.	.	.	64BB\LLL	.	.
.	.	.	.	64AA\JJJJ	.	.
.	.	(4dd\	.	8GG\	16dLL 16Bn< 16G< 16F</	.
.	.	.	.	.	16d 16B< 16G< 16F</	.
.	.	.	.	8rGG	16d 16B< 16G< 16F</	.
.	.	.	.	.	16dJJ 16B< 16G< 16F</	.
.	.	4gg\	.	(>8..GGT>\L	16dLL 16B< 16G< 16F</	.
.	.	.	.	.	16d 16B< 16G< 16F</	.
.	.	.	.	.	16d 16B< 16G< 16F</	.
.	.	.	.	.	16dJJ 16B< 16G< 16F</	.
*	*	*	*	*Xtuplet	*	*
.	.	.	.	96FF\LLL	.	.
.	.	.	.	96EE\	.	.
.	.	.	.	96DD\JJJJ	.	.
=48	=48	=48	=48	=48	=48	=48
2r	.	4ee\)	.	8CC\L)	16cLL 16G< 16E</	.
.	.	.	.	.	16c 16G< 16E</	.
.	.	.	.	32r	16c 16G< 16E</	.
.	.	.	.	32GG\LL	.	.
.	.	.	.	32AA\	16cJJ 16G< 16E</	.
.	.	.	.	32BBn\JJJ	.	.
.	.	4r	.	8..CT\L	16cLL 16G< 16E</	.
.	.	.	.	.	16c 16G< 16E</	.
.	.	.	.	.	16c 16G< 16E</	.
.	.	.	.	.	16cJJ 16G< 16E</	.
.	.	.	.	96BB\LLL	.	.
.	.	.	.	96AA\	.	.
.	.	.	.	96GG\JJJJ	.	.
*clefG2	*	*	*	*	*	*
(4dd\	.	2r	.	4AA\	16dLL 16c 16F#X</	.
.	.	.	.	.	16d 16c 16F#</	.
.	.	.	.	.	16d 16c 16F#</	.
.	.	.	.	.	16dJJ 16c 16F#</	.
*	*	*	*	*	*Xtremolo	*
4gg\	.	.	.	8..GGT>\L	16dLL 16c 16Fn</	.
.	.	.	.	.	16d 16c 16F</	.
.	.	.	.	.	16d 16Bn 16F</	.
.	.	.	.	.	16dJJ 16B 16F</	.
.	.	.	.	96FF\LLL	.	.
.	.	.	.	96EE\	.	.
.	.	.	.	96DD\JJJJ	.	.
=49	=49	=49	=49	=49	=49	=49
4cc\)	.	2r	.	8CC\L	8cL 8E</	.
.	.	.	.	16.r	16.r	.
!	!	!	!	!	!	!LO:DY:b=2
.	.	.	.	64CC\LLL	64C</LLL	p
.	.	.	.	64DD\JJJJ	64D</JJJJ	.
4r	.	.	.	8..EE\L	8..E<t</L	.
.	.	.	.	64DD\LLL	64D</LLL	.
.	.	.	.	64CC\JJJJ	64C</JJJJ	.
2r	.	(4cc\	.	4C\	4c</	.
.	.	8ee\)	.	4rC	4rc<	.
.	.	8r	.	.	.	.
!!LO:PB:g=original
=50	=50	=50	=50	=50	=50	=50
2r	.	1r	.	8CC\L	(8c<L 8G< 8E</	.
.	.	.	.	16.r	16.r<	.
!	!	!	!	!	!	!LO:DY:a
.	.	.	.	64CC\LLL	64C</LLL	<
.	.	.	.	64DD\JJJJ	64D</JJJJ)	.
!	!	!	!	!	!	!LO:DY:a
.	.	.	.	8..EEt\L	8..E<t</L	[ >
.	.	.	.	64DD\LLL	64D</LLL	.
.	.	.	.	64CC\JJJJ	64C</JJJJ	.
(4ee\	>	.	.	4C\	4c<'/	]
8gg\)	]	.	.	4r	4ryy	.
8r	.	.	.	.	.	.
=51	=51	=51	=51	=51	=51	=51
1r	.	2r	.	8CC\L	8c<L 8G< 8E</	.
!	!	!	!	!	!LO:N:vis=16	!
.	.	.	.	16r	16.r<	.
!	!	!	!	!	!	!LO:HP:b=2
.	.	.	.	32CC\LL	.	<
.	.	.	.	32DD\JJJ	64C</LLL	.
.	.	.	.	.	64D</JJJJ	.
!	!	!	!	!	!	!LO:HP:b=2
.	.	.	.	8..EE\L	8..E<t</L	[ >
.	.	.	.	64DD\LLL	64D</LLL	.
.	.	.	.	64CC\JJJJ	64C</JJJJ	]
.	.	(4gg\	<	4C\	4c</	.
.	.	[4bb-\	[	4r	4ryy	.
=52	=52	=52	=52	=52	=52	=52
!	!	!	!	!	!	!LO:DY:b=2
1r	.	4bb-\_	ff	4.C 4.CC\	4.c< 4.B-< 4.G< 4.E</	ff
.	.	&(8bb-\L]	.	.	.	.
.	.	16r	.	8r	8r	.
.	.	64bb-\LLL)	.	.	.	.
.	.	64aa\	.	.	.	.
.	.	64gg\	.	.	.	.
.	.	64ff\JJJJ&)	.	.	.	.
!	!	!	!LO:HP:t=dim&colon;	!	!	!
.	.	8ee\L	>	2rC	2rB<	.
.	.	16r	.	.	.	.
.	.	(64gg\LLL	.	.	.	.
.	.	64ff\	.	.	.	.
.	.	64ee\	.	.	.	.
.	.	64dd\JJJJ	.	.	.	.
.	.	8cc'/L)	.	.	.	.
.	.	16r	.	.	.	.
.	.	(64cc/LLL	.	.	.	.
.	.	64b-X/	.	.	.	.
.	.	64a/	.	.	.	.
.	.	64g/JJJJ	.	.	.	.
=53	=53	=53	=53	=53	=53	=53
!	!	!	!	!	!	!LO:DY:b=2
(4cc\	p	4f/)	p	4FF 4FFF\	4c< 4A< 4F</	p
4ff\)	.	4r	.	4rAA	4rB<	.
(>4f/	.	2r	.	4rAA	8r<	.
.	.	.	.	.	(8D</L	.
4gT/)	.	.	.	4BB- 4BBB-\	8E</	.
.	.	.	.	.	8D</J)	.
=54	=54	=54	=54	=54	=54	=54
2.a/	<	2r	.	8AAL 8AAA\	(8C#X</L	.
.	[	.	.	16rAAA	16r<	.
.	>	.	.	64AA\LLL	64A</LLL	.
.	]	.	.	64BBn\	64Bn</	.
.	.	.	.	64C#X\	64c#X</	.
.	.	.	.	64D\JJJJ	64d</JJJJ	.
!	!	!	!	!LO:N:vis=8	!	!
.	.	.	.	16E'\LL	16e/LL)	.
*	*	*	*	*	*Xtuplet	*
!	!	!	!	!LO:N:vis=20	!LO:N:vis=20	!
.	.	.	.	80r	(80r	.
.	.	.	.	80A\LL	80a/LL	.
.	.	.	.	80B-\	80bn/	.
.	.	.	.	80c\	80cc#X/	.
.	.	.	.	80d\JJJJ	80dd/JJJJ	.
!	!	!	!	!LO:TX:t=P:problem:mixed beam	!	!
.	.	.	.	16e'>\LL	16ee'\LL)	.
*	*	*	*	*clefG2	*	*
!	!	!	!	!	!LO:N:vis=20	!
.	.	.	.	(64a/LL	80r	.
!	!	!	!	!	!LO:TUP:a:problem:klamra łukowa	!
.	.	.	.	.	(80aa\LL	.
.	.	.	.	64b-/	.	.
.	.	.	.	.	80bb-\	.
.	.	.	.	64cc/	.	.
.	.	.	.	.	80ccc\	.
.	.	.	.	64dd/JJJJ	.	.
.	.	.	.	.	80ddd\JJJJ	.
.	.	4r	.	4ee'\)	4eee'\)	.
*	*	*tuplet	*	*	*	*
!	!	!LO:TX:b:t=P:problem:nie wyświetla się oznaczenie trioli	!	!	!	!
.	.	(>16qqe/LL	.	.	.	.
!	!	!LO:TUP:b:problem:klamra łukowa	!	!	!	!
.	.	16qqf#X/	.	.	.	.
.	.	16qqg#X/JJ	.	.	.	.
4r	.	8a'/)	.	4r	4r	.
.	.	8r	.	.	.	.
*clefF4	*	*	*	*	*	*
=55	=55	=55	=55	=55	=55	=55
2r	.	(4cc\	.	1r	1r	.
.	.	4ee\)	.	.	.	.
8r	.	(>4f/	.	.	.	.
(8D'/L	.	.	.	.	.	.
8BB-'/	.	4gT/	.	.	.	.
8C'/J	.	.	.	.	.	.
!	!	!	!	!LO:CL:ed	!	!
*	*	*	*	*clefF4	*	*
=56	=56	=56	=56	=56	=56	=56
*	*	*	*	*^	*	*
4FF/)	.	4a/)	.	16F 16FF/	2ryy	(4ccc 4cc\	.
.	.	.	.	16cLL 16A 16F\	.	.	.
.	.	.	.	16c 16A 16F\	.	.	.
.	.	.	.	16cJJ 16A 16F\	.	.	.
*	*	*	*	*tremolo	*	*	*
4r	.	4r	.	16cLL 16A 16F\	.	4fff 4ff\)	.
.	.	.	.	16c 16A 16F\	.	.	.
.	.	.	.	16c 16A 16F\	.	.	.
.	.	.	.	16cJJ 16A 16F\	.	.	.
*	*	*	*	*Xtremolo	*	*	*
2r	.	2r	.	4D/	16D\LL	(4ff 4f\	.
.	.	.	.	.	16d 16A 16F\	.	.
.	.	.	.	.	16d 16A 16F\	.	.
.	.	.	.	.	16dJJ 16A 16F\	.	.
.	.	.	.	4BBn/	16BBn\LL	4gg 4gT\)	.
.	.	.	.	.	16d 16G 16F\	.	.
.	.	.	.	.	16d 16G 16F\	.	.
.	.	.	.	.	16dJJ 16G 16F\	.	.
.	.	.	.	.	.	16qqff/LL	.
.	.	.	.	.	.	16qqgg/JJ	.
!!LO:PB:g=original
=57	=57	=57	=57	=57	=57	=57	=57
!	!	!	!	!	!LO:N:vis=2	!	!
1ryy	.	1ryy	.	2C/	16C\LL	([8aaL [8a\	.
.	.	.	.	.	16c 16A 16F\	.	<
.	.	.	.	.	16c 16A 16F\	32aa]LL 32a\]	.
.	.	.	.	.	.	32bb-\	.
.	.	.	.	.	16cJJ 16A 16F\	32ccc\	.
.	.	.	.	.	.	32ddd\JJJ)	.
*	*	*	*	*	*tremolo	*8va	*
.	.	.	.	.	16cLL 16A 16F\	(32ccc\LLL	[
.	.	.	.	.	.	32ddd\	.
.	.	.	.	.	16c 16A 16F\	32eee\	.
.	.	.	.	.	.	32fff\)	.
.	.	.	.	.	16c 16A 16F\	(32eee\	.
.	.	.	.	.	.	32fff\	.
.	.	.	.	.	16cJJ 16A 16F\	32ggg\	.
.	.	.	.	.	.	32aaa\JJJ)	.
!	!	!	!	!	!LO:N:vis=2	!	!
.	.	.	.	2C/	16C\LL	([8cccc\L	f
.	.	.	.	.	16c 16B- 16G\	.	.
.	.	.	.	.	16c 16B- 16G\	32cccc\LL]	>
.	.	.	.	.	.	32bbb-\	.
.	.	.	.	.	16cJJ 16B- 16G\	32ggg\	.
.	.	.	.	.	.	32eee\JJJ	.
*	*	*	*	*	*	*X8va	*
!	!	!	!	!	!	!LO:TX:a:t=loco	!
.	.	.	.	.	16cLL 16B- 16G\	32ccc\LLL	.
.	.	.	.	.	.	32bb-\	.
.	.	.	.	.	16c 16B- 16G\	32gg\	]
.	.	.	.	.	.	32ee\	.
.	.	.	.	.	16c 16B- 16G\	32cc\	.
.	.	.	.	.	.	32b-\	.
.	.	.	.	.	16cJJ 16B- 16G\	32g\	.
.	.	.	.	.	.	32a\JJJ)	.
*	*	*	*	*	*Xtremolo	*	*
*	*	*	*	*v	*v	*	*
=58	=58	=58	=58	=58	=58	=58
2r	.	1ryy	.	4FF/	16f/LL	.
.	.	.	.	.	16f 16c 16A/	.
.	.	.	.	.	16f 16c 16A/	.
.	.	.	.	.	16fJJ 16c 16A/	.
*	*	*	*	*	*tremolo	*
.	.	.	.	4AA/	(>16fLL 16c 16A/	.
.	.	.	.	.	16f 16c 16A/	.
.	.	.	.	.	16f 16c 16A/	.
.	.	.	.	.	16fJJ 16c 16A/	.
*clefG2	*	*	*	*	*	*
!	!	!	!	!	!LO:TX:a:t=........	!
(4ee\	.	.	.	2CC#Xt/	16g'>LL 16e 16A/	.
.	.	.	.	.	16g'> 16e 16A/	.
.	.	.	.	.	16g'> 16e 16A/	.
.	.	.	.	.	16g'> 16e 16A/	.
4bb-\)	.	.	.	.	16g'> 16e 16A/	.
.	.	.	.	.	16g'> 16e 16A/	.
.	.	.	.	.	16g'> 16e 16A/	.
.	.	.	.	.	16g'>JJ 16e 16A/)	.
.	.	.	.	16qqBBBn/LL	.	.
.	.	.	.	16qqCC#/JJ	.	.
=59	=59	=59	=59	=59	=59	=59
4a/	.	1ryy	.	4DD/	16fLL 16A/	.
.	.	.	.	.	16f 16e 16A/	.
.	.	.	.	.	16f 16d 16A/	.
.	.	.	.	.	16fJJ 16c#X 16A/	.
4r	.	.	.	4FF/	(>16fLL 16d 16A/	.
.	.	.	.	.	16f 16d 16A/	.
.	.	.	.	.	16f 16d 16A/	.
.	.	.	.	.	16fJJ 16d 16A/	.
!	!	!	!	!	!LO:TX:a:t=........	!
(4dd\	.	.	.	2BBBnt/	16f'>LL 16d 16G/	.
.	.	.	.	.	16f'> 16d 16G/	.
.	.	.	.	.	16f'> 16d 16G/	.
.	.	.	.	.	16f'> 16d 16G/	.
4gg\)	.	.	.	.	16f'> 16d 16G/	.
.	.	.	.	.	16f'> 16d 16G/	.
.	.	.	.	.	16f'> 16d 16G/	.
.	.	.	.	.	16f'>JJ 16d 16G/)	.
.	.	.	.	16qqAAA/LL	.	.
.	.	.	.	16qqBBB/JJ	.	.
=60	=60	=60	=60	=60	=60	=60
4g/	.	[2ee-X\	<	(>4CC/	16e-XLL 16d 16G/	.
.	.	.	[	.	16e- 16d 16G/	.
.	.	.	.	.	16e- 16c 16G/	.
.	.	.	.	.	16e-JJ 16Bn 16G/	.
4r	.	.	.	4EE-X/)	16e-LL 16c 16G/	.
.	.	.	.	.	16e- 16c 16G/	.
.	.	.	>	.	16e- 16c 16G/	.
.	.	.	.	.	16e-JJ 16c 16G/	.
2r	.	(4ee-X\]	.	4AA-X/	16e-LL 16c 16A-X/	.
.	.	.	.	.	16e- 16c 16A-/	.
.	.	.	.	.	16e- 16c 16A-/	.
.	.	.	.	.	16e-JJ 16c 16A-/	.
.	.	4aa-X\)	]	4r	16e-LL 16c 16A-/	.
.	.	.	.	.	16e- 16c 16A-/	.
.	.	.	.	.	16e- 16c 16A-/	.
.	.	.	.	.	16e-JJ 16c 16A-/	.
=61	=61	=61	=61	=61	=61	=61
1r	.	4b-X\	.	8DD-X\L	16fLL 16B-X< 16A-X</	.
.	.	.	.	.	16f 16B-< 16A-</	.
.	.	.	.	16r	16f 16B-< 16A-</	.
.	.	.	.	32BBB-\LL	16fJJ 16B-< 16A-</	.
.	.	.	.	32CC\JJJ	.	.
!	!	!	!	!LO:TX:a:t=P:problem:tryl bez znaków	!	!
.	.	(4ff\	.	4DD-t>\	16fLL 16B-< 16A-</	.
.	.	.	.	.	16f 16B-< 16A-</	.
.	.	.	.	.	16f 16B-< 16A-</	.
.	.	.	.	.	16fJJ 16B-< 16A-</	.
.	.	.	.	16qqCC/LL	.	.
.	.	.	.	16qqDD-/JJ	.	.
.	.	4ee-X\	.	2EE-X\	16e-XLL 16B-< 16A-</	.
.	.	.	.	.	16e- 16B-< 16A-</	.
.	.	.	.	.	16e- 16B-< 16A-</	.
.	.	.	.	.	16e-JJ 16B-< 16A-</	.
.	.	4dd-X\	.	.	16fLL 16B-< 16G</	.
.	.	.	.	.	16f 16B-< 16G</	.
.	.	.	.	.	16f 16B-< 16G</	.
.	.	.	.	.	16fJJ 16B-< 16G</	.
=62	=62	=62	=62	=62	=62	=62
1r	.	4cc\)	.	8FF\L	16c<LL 16A-X</	.
.	.	.	.	.	16c< 16A-</	.
.	.	.	.	16r	16c< 16A-</	.
*	*	*	*	*tuplet	*	*
!	!	!	!	!LO:TUP:a:problem:klamra łukowa	!	!
.	.	.	.	48CC\LL	16c<JJ 16A-</	.
.	.	.	.	48DD\	.	.
.	.	.	.	48EE\JJJ	.	.
.	.	4r	.	4FFT>\	16c<LL 16A-</	.
.	.	.	.	.	16c< 16A-</	.
.	.	.	.	.	16c< 16A-</	.
.	.	.	.	.	16c<JJ 16A-</	.
.	.	.	.	16qqEE/LL	.	.
.	.	.	.	16qqDD-X/JJ	.	.
.	.	(4ee-X\	.	8CC\L	16e-XLL 16c< 16A-</	.
.	.	.	.	.	16e- 16c< 16A-</	.
.	.	.	.	16.r	16e- 16c< 16A-</	.
.	.	.	.	.	16e-JJ 16c< 16A-</	.
!	!	!	!	!LO:N:vis=32	!	!
.	.	.	.	64AAA\LL	.	.
!	!	!	!	!LO:N:vis=32	!	!
.	.	.	.	64BBB-\JJJ	.	.
.	.	4aa-X\)	.	4CC\	16e-LL 16c< 16A-</	.
.	.	.	.	.	16e- 16c< 16A-</	.
.	.	.	.	.	16e- 16c< 16A-</	.
.	.	.	.	.	16e-JJ 16c< 16A-</	.
.	.	.	.	16qqBBB-/LL	.	.
.	.	.	.	16qqCC/JJ	.	.
!!LO:PB:g=original
=63	=63	=63	=63	=63	=63	=63
1r	.	(4b-X\	.	8DD-X\L	16fLL 16B-X< 16A-X</	.
.	.	.	.	.	16f 16B-< 16A-</	.
.	.	.	.	16.r	16f 16B-< 16A-</	.
.	.	.	.	.	16fJJ 16B-< 16A-</	.
!	!	!	!	!LO:N:vis=32	!	!
.	.	.	.	64BBB-\LL	.	.
!	!	!	!	!LO:N:vis=32	!	!
.	.	.	.	64CC\JJJ	.	.
*	*	*	*	*	*rep	*
!	!	!	!	!LO:TX:a:t=P:problem:tryl bez znaków	!	!
.	.	4ff\	.	4DD-t>\	16fLL 16B-< 16A-</	.
.	.	.	.	.	16f 16B-< 16A-</	.
.	.	.	.	.	16f 16B-< 16A-</	.
.	.	.	.	.	16fJJ 16B-< 16A-</	.
*	*	*	*	*	*Xrep	*
.	.	.	.	16qqCC/LL	.	.
.	.	.	.	16qqDD-/JJ	.	.
.	.	4ee-X\	.	2EE-X\	16e-XLL 16B-< 16A-</	.
.	.	.	.	.	16e- 16B-< 16A-</	.
.	.	.	.	.	16e- 16B-< 16A-</	.
.	.	.	.	.	16e-JJ 16B-< 16A-</	.
.	.	4g/)	.	.	16d-XLL 16B-< 16G</	.
.	.	.	.	.	16d- 16B-< 16G</	.
.	.	.	.	.	16d- 16B-< 16G</	.
.	.	.	.	.	16d-JJ 16B-< 16G</	.
=64	=64	=64	=64	=64	=64	=64
!	!	!	!	!	!LO:SIC:v:n=2:s=8A-	!
4ee-X\	.	4a-X/	.	8AA-X/L	8c< 8A</	.
.	.	.	.	16r	16r	.
*	*	*	*	*Xtuplet	*clefF4	*
!	!	!	!	!	!LO:TX:a:t=P:problem:bemol na początku taktu	!
.	.	.	.	48EE-X/LL	48E-X\LLL	.
.	.	.	.	48FF/	48F\	.
.	.	.	.	48GG/JJJ	48G\JJJ	.
!	!	!	!	!	!LO:SIC:v:s=8..A-	!
4aa-X\	.	4r	.	8..AA-/L	8..At\L	.
!	!	!	!	!LO:N:vis=32	!	!
.	.	.	.	64GG/LLL	64G\LLL	.
!	!	!	!	!LO:N:vis=32	!	!
.	.	.	.	64FF/JJJJ	64F\JJJJ	.
!	!	!	!	!LO:TX:t=8va	!	!
[2cc\	.	4gg\	.	8En\Lyy	8En\L	.
.	.	.	.	16.ryy	16.r	.
!	!	!	!	!LO:N:vis=32	!LO:N:vis=32	!
.	.	.	.	64C\LLLyy	64C\LLL	.
!	!	!	!	!LO:N:vis=32	!LO:N:vis=32	!
.	.	.	.	64D\JJJJyy	64D\JJJJ	.
!	!	!LO:TX:a:t=P:problem:brak początku ligatury	!	!	!	!
.	.	[4bb-\	.	4Et>\yy	4Et\	.
.	.	.	.	16qqD/LLyy	16qqD/LL	.
.	.	.	.	16qqE/JJyy	16qqE/JJ	.
!!LO:PB:g=original
=65	=65	=65	=65	=65	=65	=65
!	!	!	!	!LO:TX:a:t=8va	!	!
4cc\]	.	4bb-\]	.	8F\Lyy	8F\L	.
.	.	.	.	16.ryy	16.r	.
*	*	*	*	*tuplet	*tuplet	*
!	!	!	!	!LO:TUP:a:problem:klamra łukowa	!LO:TUP:a:problem:klamra łukowa	!
.	.	.	.	96C\LLLyy	96C\LLL	.
.	.	.	.	96D\yy	96D\	.
.	.	.	.	96En\JJJJyy	96En\JJJJ	.
2ff\	.	[2.aa-X\	.	8..FT\Lyy	8..FT\L	.
.	.	.	.	32E-X\Jkkyy	32E-X\Jkk	.
.	.	.	.	8D\Lyy	8D\L	.
.	.	.	.	16.ryy	16.r	.
.	.	.	.	64BB-\LLLyy	64BB-\LLL	.
.	.	.	.	64C\JJJJyy	64C\JJJJ	.
[4b-\	.	.	.	4Dt\yy	4Dt\	.
.	.	.	.	16qqC/LLyy	16qqC/LL	.
.	.	.	.	16qqD/JJyy	16qqD/JJ	.
=66	=66	=66	=66	=66	=66	=66
2b-\]	.	4aa-\]	.	8E-X/Lyy	8E-X/L	.
.	.	.	.	16.ryy	16.r	.
*	*	*	*	*Xtuplet	*Xtuplet	*
.	.	.	.	96BB-X/LLLyy	96BB-X/LLL	.
.	.	.	.	96C/yy	96C/	.
.	.	.	.	96D/JJJJyy	96D/JJJJ	.
.	.	(2gg\	.	4E-T/yy	4E-T/	.
.	.	.	.	16qqD/LLyy	16qqD/LL	.
.	.	.	.	16qqE-/JJyy	16qqE-/JJ	.
(2bn\	.	.	.	(yy>8D/Lyy	(>8D/L	.
.	.	.	.	16ryy	16r	.
.	.	.	.	64D/LLLyy	64D/LLL	.
.	.	.	.	64C/yy	64C/	.
.	.	.	.	64BBn/yy	64BBn/	.
.	.	.	.	64AA/JJJJ)yy	64AA/JJJJ)	.
.	.	[4ff\	.	4GGT/yy	4GGT/	.
.	.	.	.	16qqFF#X/LLyy	16qqFF#X/LL	.
.	.	.	.	16qqGG/JJyy	16qqGG/JJ	.
=67	=67	=67	=67	=67	=67	=67
(2cc\)	.	4ff\])	.	8C/Lyy	8C/L	.
.	.	.	.	16.ryy	16.r	.
.	.	.	.	96GG/LLLyy	96GG/LLL	.
.	.	.	.	96AA/yy	96AA/	.
.	.	.	.	96BBn/JJJJyy	96BBn/JJJJ	.
.	.	(2ee-X\	.	4CT/yy	4CT/	.
.	.	.	.	16qqBB/LLyy	16qqBB/LL	.
.	.	.	.	16qqC/JJyy	16qqC/JJ	.
2ryy	.	.	.	8AA-X/Lyy	8AA-X/L	.
.	.	.	.	16.ryy	16.r	.
!	!	!	!	!LO:TUP:a:problem:klamra łukowa	!LO:TUP:a:problem:klamra łukowa	!
.	.	.	.	96E/LLLyy	96E/LLL	.
.	.	.	.	96F/yy	96F/	.
.	.	.	.	96G/JJJJyy	96G/JJJJ	.
!	!	!LO:TX:b:t=ges	!	!	!	!
.	.	4gg-X\	.	4At\yy	4At\	.
.	.	.	.	16qqG/LLyy	16qqG/LL	.
.	.	.	.	16qqA/JJyy	16qqA/JJ	.
=68	=68	=68	=68	=68	=68	=68
8dd-X\)	.	8ff\)	.	4DD-X/	4D-X\	.
8r	.	8r	.	.	.	.
(2ff\	f >	4r	.	4r	4r	.
.	]	[>2a-X/	f >	(>4r	4r	.
*	*	*	*	*	*clefG2	*
4bn\)	.	.	]	8FL 8FF/	4dn/	>]
.	.	.	.	8F-XJ 8FF-X/)	.	.
=69	=69	=69	=69	=69	=69	=69
(2cc\	.	2a-SSS/]	.	1E-X 1EE-X	2e-X/	.
.	.	.	.	.	16qqF</LL	.
.	.	.	.	.	16qqG</	.
.	.	.	.	.	16qqA-X</JJ	.
!	!	!	!	!	!LO:TX:a:t=P:problem:tryl bez znaków	!
2dd-X\)	.	4.cc/	.	.	2G<^<t</	.
.	.	8b-/	.	.	.	.
.	.	.	.	.	16qqF</LL	.
.	.	.	.	.	16qqG</JJ	.
=70	=70	=70	=70	=70	=70	=70
4cc\	.	8a-X/	.	4AA-X 4AAA-X\	4A-X</	.
.	.	8r	.	.	.	.
4r	.	2aa-X\	f >	4r	4ryy	.
[2aa-X\	f >	.	]	4r	4ryy	.
!	!	!	!	!	!	!LO:HP:b=2
.	]	[>4f^/	.	(>8DL 8DD\	4Bn</	>
.	.	.	.	8D-XJ 8DD-X\)	.	]
=71	=71	=71	=71	=71	=71	=71
4aa-\]	.	(>2.f/]	.	1C 1CC	2c</	.
16gg\LL	.	.	.	.	.	.
!	!	!	!	!	!	!LO:HP:b=2
16aa-X\	.	.	.	.	.	<
16bb-X\	.	.	.	.	.	.
!	!	!	!LO:HP:a	!	!	!
16aa-\JJ	.	.	<	.	.	.
2ggt\	.	.	.	.	2B-<T</	.
.	.	4en/)	[	.	.	[
16qqff/LL	.	.	.	.	16qqA-X</LL	.
16qqgg/JJ	.	.	.	.	16qqB-</JJ	.
=72	=72	=72	=72	=72	=72	=72
!	!LO:DY:a	!	!LO:DY:a	!	!	!
4aa-X\	f	4f/	f	(>8BBnL 8BBB-\	(>8dnL 8A-X< 8F</	.
!	!	!	!	!LO:N:vis=16.	!LO:N:vis=16.	!
.	.	.	.	16r	16r<	.
.	.	.	.	64BB\LLL	64Bn/LLL	f
.	.	.	.	64C\	64c/	.
.	.	.	.	64D\	64d/	.
.	.	.	.	64E-X\JJJJ	64e-X/JJJJ	.
!	!	!	!	!LO:N:vis=8	!LO:N:vis=8	!
4r	.	4r	.	(>16F'>\LL)	(>16f'/LL)	.
!	!	!	!	!LO:N:vis=40	!	!
.	.	.	.	80r	80r	.
!	!	!	!	!LO:TUP:a:problem:klamra łukowa	!LO:TUP:a:problem:klamra łukowa	!
.	.	.	.	80B-\LL	80b-/LL	.
.	.	.	.	80c\	80cc/	.
.	.	.	.	80d\	80dd/	.
.	.	.	.	80e-X\JJJJ	80ee-X/JJJJ	.
!	!	!	!	!LO:N:vis=8	!LO:N:vis=8	!
.	.	.	.	16f'>\LL)	16ff'\LL)	.
*	*	*	*	*clefG2	*	*
!	!	!	!	!LO:N:vis=40	!	!
.	.	.	.	80r	80r	.
!	!	!	!	!LO:TUP:a:problem:klamra łukowa	!LO:TUP:a:problem:klamra łukowa	!
.	.	.	.	(>80b-\LL	(>80bb-\LL	.
.	.	.	.	80cc\	80ccc\	.
.	.	.	.	80dd\	80ddd\	.
.	.	.	.	80ee\JJJJ	80eee\JJJJ	.
2r	.	(4ddd\	.	4ff'>\)	4fff'\)	.
.	.	8eee\L	.	4r	4r	.
.	.	8fff\J)	.	.	.	.
!!LO:PB:g=original
=73	=73	=73	=73	=73	=73	=73
*	*	*	*	*clefF4	*	*
1r	.	([4fff\	.	4C 4CC/	8r	.
.	.	.	.	.	8fL 8c 8A/	.
.	.	16fff\LL]	.	4r	8f 8c 8A/	.
.	.	16ccc\	.	.	.	.
.	.	16aa\	.	.	8fJ 8c 8A/	.
.	.	16ddd\JJ)	.	.	.	.
.	.	([4ccc\	.	4C 4CC/	8r	.
.	.	.	.	.	8gL 8c 8B-/	.
.	.	16ccc\LL]	.	4ryy	8g 8c 8B-/	.
.	.	16bb-\	.	.	.	.
.	.	16dd\	.	.	8gJ 8c 8B-/	.
.	.	16ee\JJ)	.	.	.	.
*	*	*	*	*	*Xtremolo	*
=74	=74	=74	=74	=74	=74	=74
*	*	*	*	*^	*	*
(4cc\	.	4ff\	.	16AA/LL	2FF\	8fL 8c 8A/	.
!LO:TX:b:i:t=dol.	!	!	!	!	!	!	!
.	.	.	.	16C/	.	.	.
.	.	.	.	16F/	.	16r	.
.	.	.	.	16C/JJ	.	64f/LLL	.
.	.	.	.	.	.	64g/	.
.	.	.	.	.	.	64a/	.
.	.	.	.	.	.	64b-/JJJJ	.
*	*	*	*	*rep	*	*	*
4ff\)	.	4r	.	16AA/LL	.	8cc\L	.
.	.	.	.	16C/	.	.	.
.	.	.	.	16F/	.	16r	.
.	.	.	.	16C/JJ	.	(80cc\LLL	.
*	*	*	*	*Xrep	*	*	*
.	.	.	.	.	.	80dd\	.
.	.	.	.	.	.	80ee\	.
.	.	.	.	.	.	80ff\	.
.	.	.	.	.	.	80gg\JJJJ)	.
*	*	*	*	*rep	*rep	*	*
2fT/	.	2r	.	16AA/LL	2FF\	16aa\LL	.
.	.	.	.	16C/	.	80r	.
.	.	.	.	.	.	80ff\LL	.
.	.	.	.	.	.	80gg\	.
.	.	.	.	.	.	80aa\	.
.	.	.	.	.	.	80bb-\JJJJ	.
.	.	.	.	16F/	.	16ccc\LL	.
.	.	.	.	16C/JJ	.	96r	.
*	*	*	*	*Xrep	*Xrep	*8va	*
.	.	.	.	.	.	(96aa\LL	.
.	.	.	.	.	.	96bb-\	.
.	.	.	.	.	.	96ccc\	.
.	.	.	.	.	.	96ddd\	.
.	.	.	.	.	.	96eee\JJJJ	.
*	*	*	*	*rep	*	*	*
.	.	.	.	16AA/LL	.	16fff\LL)	.
.	.	.	.	16C/	.	96r	.
.	.	.	.	.	.	96ccc\LL	.
.	.	.	.	.	.	96ddd\	.
.	.	.	.	.	.	96eee\	.
.	.	.	.	.	.	96fff\	.
.	.	.	.	.	.	96ggg\JJJJ	.
.	.	.	.	16F/	.	16aaa\LL	.
.	.	.	.	16C/JJ	.	80r	.
*	*	*	*	*Xrep	*	*	*
.	.	.	.	.	.	80fff\LL	.
.	.	.	.	.	.	80ggg\	.
.	.	.	.	.	.	80aaa\	.
.	.	.	.	.	.	80bbb-\JJJJ	.
16qqe/LL	.	.	.	.	.	.	.
16qqf/JJ	.	.	.	.	.	.	.
=75	=75	=75	=75	=75	=75	=75	=75
!	!	!LO:TX:b:t=dol.	!	!	!	!	!
4g/	.	(4gg\	.	16BB-/LL	1EE	([8cccc\L	.
.	.	.	.	16C/	.	.	.
.	.	.	.	16G/	.	80cccc\LLL]	.
.	.	.	.	.	.	80bbbn\	.
.	.	.	.	.	.	80bbb-X\	.
.	.	.	.	.	.	80aaa\	.
.	.	.	.	.	.	80aaa-X\JJJJ	.
.	.	.	.	16C/JJ	.	([8ggg\L)	.
4r	.	4ccc\)	.	16BB-/LL	.	.	.
.	.	.	.	16C/	.	64ggg\LLL]	.
.	.	.	.	.	.	64ggg-X\	.
.	.	.	.	.	.	64fff\	.
.	.	.	.	.	.	64eee\	.
.	.	.	.	16G/	.	64eee-X\	.
.	.	.	.	.	.	64ddd\	.
.	.	.	.	.	.	64ddd-X\	.
.	.	.	.	.	.	64ccc\	.
.	.	.	.	16C/JJ	.	64bbn\	.
.	.	.	.	.	.	64bb-X\	.
.	.	.	.	.	.	64aa\	.
.	.	.	.	.	.	64aa-X\JJJJ	.
*	*	*	*	*	*	*X8va	*
!	!	!	!	!	!	!LO:TX:a:t=loco	!
2r	.	2ccT\	.	16BB-/LL	.	(&(24ggn\LL)	.
.	.	.	.	.	.	48r	.
.	.	.	.	16C/	.	48gg-X\L	.
.	.	.	.	.	.	48ff\	.
.	.	.	.	.	.	48eeny\JJJ&)	.
.	.	.	.	16G/	.	&(24ee-X\LL	.
.	.	.	.	.	.	48r	.
.	.	.	.	16C/JJ	.	48ddny\L	.
.	.	.	.	.	.	48dd-X\&)	.
.	.	.	.	.	.	48cc\JJJ	.
*	*	*	*	*	*	*tuplet	*
!	!	!	!	!	!	!LO:TX:a:t=P:problem:tuplet 15 zamiast 14	!
.	.	.	.	16BB-/LL	.	56bn/LLL	.
.	.	.	.	.	.	56b-X/	.
.	.	.	.	.	.	56any/	.
.	.	.	.	.	.	56a-X/	.
.	.	.	.	16C/	.	.	.
.	.	.	.	.	.	56g/	.
.	.	.	.	.	.	56g-X/	.
.	.	.	.	.	.	56f/	.
.	.	.	.	16G/	.	56e/	.
.	.	.	.	.	.	56e-X/	.
.	.	.	.	.	.	56d/	.
.	.	.	.	.	.	56d-X/	.
.	.	.	.	16C/JJ	.	.	.
.	.	.	.	.	.	56c/	.
.	.	.	.	.	.	56B-/	.
.	.	.	.	.	.	56B-X/JJJ	.
.	.	16qqbn/LL	.	.	.	.	.
.	.	16qqcc/JJ	.	.	.	.	.
=76	=76	=76	=76	=76	=76	=76	=76
(4cc\	.	4ee\	.	16AA/LL	1FF	8A/L)	.
.	.	.	.	16C/	.	.	.
.	.	.	.	16F/	.	16r	.
*	*	*	*	*	*	*Xtuplet	*
.	.	.	.	16C/JJ	.	(80a/LLL	.
.	.	.	.	.	.	80b-/	.
.	.	.	.	.	.	80cc/	.
.	.	.	.	.	.	80dd/	.
.	.	.	.	.	.	80ee/JJJJ	.
4ff\)	.	4r	.	16AA/LL	.	8ff'\L)	.
.	.	.	.	16C/	.	.	.
.	.	.	.	16F/	.	16r	.
.	.	.	.	16C/JJ	.	(80cc\LLL	.
.	.	.	.	.	.	80dd\	.
.	.	.	.	.	.	80ee\	.
.	.	.	.	.	.	80ff\	.
.	.	.	.	.	.	80gg\JJJJ	.
(>4fT/	.	2r	.	16AA/LL	.	16aa'\LL)	.
.	.	.	.	16C/	.	80r	.
.	.	.	.	.	.	(80ff\LL	.
.	.	.	.	.	.	80gg\	.
.	.	.	.	.	.	80aa\	.
.	.	.	.	.	.	80bb-\JJJJ	.
.	.	.	.	16F/	.	16ccc'\LL)	.
.	.	.	.	16C/JJ	.	96r	.
*	*	*	*	*	*	*8va	*
.	.	.	.	.	.	(96aa\LL	.
.	.	.	.	.	.	96bb-\	.
.	.	.	.	.	.	96ccc\	.
.	.	.	.	.	.	96ddd\	.
.	.	.	.	.	.	96eee\JJJJ	.
8g/L	.	.	.	16AA/LL	.	16fff'\LL)	.
.	.	.	.	16C/	.	96r	.
.	.	.	.	.	.	(96ccc\LL	.
.	.	.	.	.	.	96ddd\	.
.	.	.	.	.	.	96eee\	.
.	.	.	.	.	.	96fff\	.
.	.	.	.	.	.	96ggg\JJJJ	.
8a/J)	.	.	.	16F/	.	16aaa'\LL)	.
.	.	.	.	16C/JJ	.	64r	.
.	.	.	.	.	.	(64fff'\LL	.
.	.	.	.	.	.	64ggg'\	.
.	.	.	.	.	.	64aaa'\JJJJ	.
!!LO:PB:g=original
=77	=77	=77	=77	=77	=77	=77	=77
4g/	.	(4gg\	.	16BB-/LL	1EE	[8bbb-\L	.
.	.	.	.	16C/	.	.	.
.	.	.	.	16G/	.	64bbb-\LLL]	.
.	.	.	.	.	.	64ggg\	.
.	.	.	.	.	.	64fff#X\	.
.	.	.	.	.	.	64aaa\	.
.	.	.	.	16C/JJ	.	64ggg\	.
.	.	.	.	.	.	64eee\	.
.	.	.	.	.	.	64ddd#X\	.
.	.	.	.	.	.	64fffn\JJJJ)	.
4r	.	4ccc\)	.	16BB-/LL	.	([8eee\L	.
.	.	.	.	16C/	.	.	.
.	.	.	.	16G/	.	64eee\LLL]	.
.	.	.	.	.	.	64ccc\	.
.	.	.	.	.	.	64bbn\	.
.	.	.	.	.	.	64ddd#\	.
*	*	*	*	*	*	*X8va	*
!	!	!	!	!	!	!LO:TX:a:t=loco	!
.	.	.	.	16C/JJ	.	64ccc\	.
.	.	.	.	.	.	64gg\	.
.	.	.	.	.	.	64ff#X\	.
.	.	.	.	.	.	64aa\JJJJ)	.
2r	.	(4cc\	.	16BB-/LL	.	[8gg\L	.
.	.	.	.	16C/	.	.	.
.	.	.	.	16G/	.	(64gg\LLL]	.
.	.	.	.	.	.	64ee\	.
.	.	.	.	.	.	64dd#X\	.
.	.	.	.	.	.	64ffn\	.
.	.	.	.	16C/JJ	.	64ee\	.
.	.	.	.	.	.	64cc\	.
.	.	.	.	.	.	64bn\	.
.	.	.	.	.	.	64dd#\JJJJ	.
.	.	4gg\)	.	16BB-/LL	.	64cc/LLLL	.
.	.	.	.	.	.	64g/	.
.	.	.	.	.	.	64f#X/	.
.	.	.	.	.	.	64a/	.
.	.	.	.	16C/	.	64g/	.
.	.	.	.	.	.	64e/	.
.	.	.	.	.	.	64d#X/	.
.	.	.	.	.	.	64f#/	.
.	.	.	.	16G/	.	64e/	.
.	.	.	.	.	.	64c/	.
.	.	.	.	.	.	64Bn/	.
.	.	.	.	.	.	64d#/	.
.	.	.	.	16C/JJ	.	64c/	.
.	.	.	.	.	.	64G/	.
.	.	.	.	.	.	64c/	.
.	.	.	.	.	.	64B-X/JJJJ)	.
=78	=78	=78	=78	=78	=78	=78	=78
1r	.	4ff\	.	16AA/LL	4FF\	4A/	.
.	.	.	.	16C/	.	.	.
.	.	.	.	16F/	.	.	.
.	.	.	.	16C/JJ	.	.	.
.	.	.	.	.	.	16qqc/LL	.
.	.	.	.	.	.	16qqf/	.
.	.	.	.	.	.	16qqa/	.
.	.	.	.	.	.	16qqcc/JJ	.
.	.	4r	.	16AA/LL	4FF\	8.aa\L	.
.	.	.	.	16C/	.	.	.
.	.	.	.	16F/	.	.	.
.	.	.	.	16A/JJ	.	16aa\Jk	.
.	.	.	.	.	.	16qqa/LL	.
.	.	.	.	.	.	16qqbn/	.
.	.	.	.	.	.	16qqcc#X/	.
.	.	.	.	.	.	16qqdd/JJ	.
.	.	2r	.	16G/LL	2E\	4cc#yt\	.
.	.	.	.	16A/	.	.	.
.	.	.	.	16c#X/	.	.	.
.	.	.	.	16A/JJ	.	.	.
.	.	.	.	.	.	16qqb/LL	.
.	.	.	.	.	.	16qqcc#/	.
.	.	.	.	.	.	16qqdd/	.
.	.	.	.	.	.	16qqee/JJ	.
.	.	.	.	16G/LL	.	8.a\L	.
.	.	.	.	16A/	.	.	.
.	.	.	.	16c#/	.	.	.
.	.	.	.	16A/JJ	.	16a\Jk	.
=79	=79	=79	=79	=79	=79	=79	=79
1r	.	1r	.	16F/LL	4D\	(4at\	<
.	.	.	.	16A/	.	.	.
.	.	.	.	16d/	.	.	.
.	.	.	.	16B-/JJ	.	.	.
.	.	.	.	.	.	16qqg#X/LL	[
.	.	.	.	.	.	16qqa/	.
.	.	.	.	.	.	16qqbn/	.
.	.	.	.	.	.	16qqcc#X/	.
.	.	.	.	.	.	16qqdd/	.
.	.	.	.	.	.	16qqee/JJ	.
.	.	.	.	16F/LL	4C\	8.ff\L)	.
.	.	.	.	16A-X/	.	.	.
.	.	.	.	16d/	.	.	.
.	.	.	.	16B-/JJ	.	16ff\Jk	.
.	.	.	.	16F/LL	2BBn\	4g#yt\	.
.	.	.	.	16G/	.	.	.
.	.	.	.	16d/	.	.	.
.	.	.	.	16G/JJ	.	.	.
.	.	.	.	.	.	16qqf#X/LL	.
.	.	.	.	.	.	16qqg#/	.
.	.	.	.	.	.	16qqb/	.
.	.	.	.	.	.	16qqdd/JJ	.
*	*	*	*	*rep	*	*	*
.	.	.	.	16F/LL	.	8.gg\L	.
.	.	.	.	16G/	.	.	.
.	.	.	.	16d/	.	.	.
.	.	.	.	16G/JJ	.	16ff\Jk	.
*clefF4	*	*	*	*Xrep	*	*	*
=80	=80	=80	=80	=80	=80	=80	=80
2r	.	2r	.	16E/LL	2C\	8..eet\L	.
.	.	.	.	16G/	.	.	.
.	.	.	.	16c/	.	.	.
.	.	.	.	16G/JJ	.	.	.
!	!	!	!	!	!	!LO:N:vis=32	!
.	.	.	.	.	.	64dd\LLL	.
!	!	!	!	!	!	!LO:N:vis=32	!
.	.	.	.	.	.	64cc\JJJJ	.
.	.	.	.	16E/LL	.	4ccc\	.
.	.	.	.	16G/	.	.	.
.	.	.	.	16c/	.	.	.
.	.	.	.	16G/JJ	.	.	.
.	.	.	.	.	.	16qqdd/	.
2BB-/	.	2g/	.	16E/LL	2BB-\	(32cc'\LLL	.
.	.	.	.	.	.	32bn'\	.
.	.	.	.	16G/	.	32cc'\	.
.	.	.	.	.	.	32dd'\	.
.	.	.	.	16c/	.	32ee'\	.
.	.	.	.	.	.	32ff'\	.
.	.	.	.	16G/JJ	.	32gg'\	.
.	.	.	.	.	.	32aa'\JJJ	.
.	.	.	.	16E/LL	.	32bb-'\LLL	.
.	.	.	.	.	.	32aa'\	.
.	.	.	.	16G/	.	32gg'\	.
.	.	.	.	.	.	32aa'\	.
.	.	.	.	16c/	.	32bb-'\	.
.	.	.	.	.	.	32ccc'\	.
.	.	.	.	16G/JJ	.	32ddd'\	.
.	.	.	.	.	.	32eee'\JJJ	.
!!LO:PB:g=original
=81	=81	=81	=81	=81	=81	=81	=81
(>4AA/	.	(>4f/	.	16C/LL	4AA\	32fff'\LLL)	.
.	.	.	.	.	.	(32eee\	.
.	.	.	.	16F/	.	32fff'\)	.
.	.	.	.	.	.	(32ggg\	.
.	.	.	.	16A/	.	32aaa'\)	.
.	.	.	.	.	.	(32eee\	.
.	.	.	.	16F/JJ	.	32fff'\)	.
.	.	.	.	.	.	(32ccc#X\JJJ	.
4BB-/	.	4d/	.	16D/LL	4BB-\	32ddd\LLL)	.
.	.	.	.	.	.	(32aa\	.
.	.	.	.	16F/	.	32bb-\)	.
.	.	.	.	.	.	(32ff#X\	.
.	.	.	.	16B-/	.	32gg\)	.
.	.	.	.	.	.	(32dd\	.
.	.	.	.	16F/JJ	.	32aa\)	.
.	.	.	.	.	.	((32gg\JJJ	.
2C/)	.	4c/	.	16F/LL	2C\	16ff#t\LL)	.
.	.	.	.	16A/	.	32ee\L	.
.	.	.	.	.	.	32dd\	.
.	.	.	.	16c/	.	32cc\	.
.	.	.	.	.	.	32bn\	.
.	.	.	.	16A/JJ	.	32cc\	.
.	.	.	.	.	.	32b\JJJ	<
.	.	4e/)	.	16E/LL	.	32b-X'/LLL	.
.	.	.	.	.	.	32a'/	.
.	.	.	.	16G/	.	32g'/	.
.	.	.	.	.	.	32f'/	[
.	.	.	.	16B-/	.	32e'/	.
.	.	.	.	.	.	32d'/	.
.	.	.	.	16G/JJ	.	32c'/	.
.	.	.	.	.	.	32B-'/JJJ	.
*	*	*	*	*v	*v	*	*
=82	=82	=82	=82	=82	=82	=82
!	!	!	!	!	!LO:TX:t=P:problem:mixed beam	!
4C#X/	ff	4A/	ff	8C#XL 8CC#X\	8A/L)	.
.	.	.	.	[8c#XJ [8C#\	[8aaJ [8ee [8a\	.
4r	.	4r	.	32c#LLL] 32C#\]	32aa] 32ee] 32a\]	.
.	.	.	.	(32c#\	(>32ggLLL 32ee [32a^/	.
.	.	.	.	32d\)	32ff) 32dd 32a/]	.
.	.	.	.	(32C#X\JJJ	32gJJJ 32e [32A^>/	.
.	.	.	.	32D'\LLL)	32fLLL 32d 32A/]	.
.	.	.	.	(32c#\	32gg 32ee [32a^>/	.
.	.	.	.	32d\)	32ff 32dd 32a/]	.
.	.	.	.	(32C#\JJJ	32gJJJ 32e [32A^>/	.
!	!	!	!	!	!LO:TX:t=P:problem:mixed beam	!
2r	.	2r	.	8D\L)	8fL 8d 8A/]	.
.	.	.	.	[8cnJ [8Cn\	[8ff#XJ [8dd [8a\	fz
.	.	.	.	16c]KL 16C\]	16ff#]KL 16dd] 16a\]	.
.	.	.	.	8B- 8BB-\	8gg 8dd 8g\	fz
.	.	.	.	16F#XJk 16FF#y\	16aaJk 16dd\	.
=83	=83	=83	=83	=83	=83	=83
*	*	*	*	*	*^	*
2r	.	2r	.	8.G 8.GG\	8ccc/L	4gg 4dd\	fz
.	.	.	.	.	16bb-/Jk	.	.
*	*	*	*	*	*tuplet	*	*
!	!	!	!	!	!LO:TUP:a:problem:klamra łukowa	!	!
.	.	.	.	48D\LLL	48d/LLL	.	<
.	.	.	.	48E\	48e/	.	.
.	.	.	.	48F#X\JJJ	48f#X/JJJ	.	.
!	!	!	!	!LO:TX:t=P:problem:mixed beam	!	!	!
.	.	.	.	16G\LL	4g/	16g\LL	[ <
*	*	*	*	*clefG2	*	*	*
.	.	.	.	32qqd/LL	.	32qqdd/LL	[
.	.	.	.	32qqe/	.	32qqee/	.
.	.	.	.	32qqf#X/JJ	.	32qqff#X/JJ	.
.	.	.	.	16g/JJ	.	16gg\JJ	.
*	*	*	*	*	*	*8va	*
.	.	.	.	(>16qqdd/LL	.	32qqddd/LL	<
.	.	.	.	16qqee/	.	32qqeee/	.
.	.	.	.	16qqff/JJ)	.	32qqfff#/JJ	.
.	.	.	.	8gg\	.	8ggg\	[
*	*	*tuplet	*	*	*	*X8va	*
!	!	!LO:TUP:a	!	!	!	!	!
.	.	(>16qqd/LL	p	.	.	.	.
.	.	16qqe/	.	.	.	.	.
.	.	16qqf#X/JJ)	.	.	.	.	.
4r	.	8g/	.	2r	2r	2ryy	.
.	.	8r	.	.	.	.	.
*tuplet	*	*	*	*	*	*	*
!LO:TUP:b	!	!	!	!	!	!	!
(>16qqD/LL	p	.	.	.	.	.	.
16qqE/	.	.	.	.	.	.	.
16qqF#X/JJ	.	.	.	.	.	.	.
8G\)	.	4r	.	.	.	.	.
8r	.	.	.	.	.	.	.
*	*	*	*	*	*v	*v	*
!	!	!	!	!LO:CL:ed	!	!
*	*	*	*	*clefF4	*	*
=84	=84	=84	=84	=84	=84	=84
*	*	*	*	*^	*	*
1ryy	.	1ryy	.	16D/LL	2BB-\	[8g/L	.
.	.	.	.	16G/	.	.	.
.	.	.	.	16B-/	.	(32g'/LL]	.
.	.	.	.	.	.	32a'/	.
.	.	.	.	16G/JJ	.	32g'/	.
.	.	.	.	.	.	32f#X'/JJJ	.
*	*	*	*	*rep	*	*	*
.	.	.	.	16D/LL	.	32g'/LLL	.
.	.	.	.	.	.	32d'/	.
.	.	.	.	16G/	.	32e'/	.
.	.	.	.	.	.	32f#'/	.
.	.	.	.	16B-/	.	32g'/	.
.	.	.	.	.	.	32a'/	.
.	.	.	.	16G/JJ	.	32b-'/	.
*	*	*	*	*Xrep	*	*	*
.	.	.	.	.	.	32cc'/JJJ	.
*	*	*	*	*rep	*	*	*
.	.	.	.	16D/LL	2BB-\	(32cc#X\LLL)	.
.	.	.	.	.	.	32dd\	.
.	.	.	.	16G/	.	32ee\	.
.	.	.	.	.	.	32ff#X\	.
.	.	.	.	16B-/	.	32gg\	.
.	.	.	.	.	.	32aa\	.
.	.	.	.	16G/JJ	.	32bb-\	.
.	.	.	.	.	.	32ccc\JJJ	.
*	*	*	*	*	*	*8va	*
.	.	.	.	16D/LL	.	32ccc#X\LLL	.
.	.	.	.	.	.	32ddd\	.
.	.	.	.	16G/	.	32bbb-\	.
.	.	.	.	.	.	32aaa\	.
.	.	.	.	16B-/	.	32ggg\	.
.	.	.	.	.	.	32fff#\	.
.	.	.	.	16G/JJ	.	32eee\	.
*	*	*	*	*Xrep	*	*	*
.	.	.	.	.	.	32ddd\JJJ)	.
!!LO:PB:g=original
=85	=85	=85	=85	=85	=85	=85	=85
1ryy	.	1ryy	.	16F/LL	2C\	8ccc\L	.
.	.	.	.	16A/	.	.	.
.	.	.	.	16c/	.	([8aaa\J	.
.	.	.	.	16B-/JJ	.	.	.
*	*	*	*	*rep	*	*	*
.	.	.	.	16F/LL	.	64aaa\LLLL]	.
*	*	*	*	*	*	*X8va	*
!	!	!	!	!	!	!LO:TX:a:t=loco	!
.	.	.	.	.	.	64eee\	.
.	.	.	.	.	.	64fff\	.
.	.	.	.	.	.	64bbn\	.
.	.	.	.	16A/	.	64ccc\	.
!	!	!	!	!	!	!LO:TX:a:t=16	!
.	.	.	.	.	.	64gg#X\	.
.	.	.	.	.	.	64aa\	.
.	.	.	.	.	.	64ee\	.
.	.	.	.	16c/	.	64ff\	.
.	.	.	.	.	.	64b-\	.
.	.	.	.	.	.	64cc\	.
.	.	.	.	.	.	64g#X\	.
.	.	.	.	16B-/JJ	.	64a\	.
*	*	*	*	*Xrep	*	*	*
.	.	.	.	.	.	64f\	.
.	.	.	.	.	.	64b-X\	.
.	.	.	.	.	.	64a\JJJJ)	.
.	.	.	.	16F/LL	2C\	(>2g#t/	.
.	.	.	.	16G/	.	.	.
.	.	.	.	16Bn/	.	.	.
.	.	.	.	16G/JJ	.	.	.
.	.	.	.	16E/LL	.	.	.
.	.	.	.	16G/	.	.	.
.	.	.	.	16B-X/	.	.	.
.	.	.	.	16E/JJ	.	.	.
.	.	.	.	.	.	16qqf#X/LL	.
.	.	.	.	.	.	16qqg#/	.
.	.	.	.	.	.	16qqa/	.
.	.	.	.	.	.	16qqg#/JJ	.
=86	=86	=86	=86	=86	=86	=86	=86
1r	.	4r	.	4A/	4F\	4f/)	.
.	.	.	<	.	.	.	.
.	.	(4cc\	.	4r	4ryy	4r	.
.	.	.	[ >	.	.	.	.
.	.	8ff\)	]	4r	2ryy	4r	.
.	.	8r	.	.	.	.	.
.	.	4r	.	8BB-L 8BBB-/	.	(>8gL 8f 8d'/	.
.	.	.	.	8CJ 8CC/	.	8gJ 8e 8c'/)	.
*	*	*	*	*v	*v	*	*
*clefG2	*	*	*	*	*	*
=87	=87	=87	=87	=87	=87	=87
4r	.	1r	.	4F 4FF/	4a 4f 4c/	.
.	<	.	.	.	.	.
(4cc\	.	.	.	4r	4r	.
.	[ >	.	.	.	.	.
8ff\)	]	.	.	4r	4r	.
8r	.	.	.	.	.	.
4r	.	.	.	8DL 8DD/	8gL 8f 8Bn/	.
.	.	.	.	8CJ 8CC/	8gJ 8e 8B-X/	.
=88	=88	=88	=88	=88	=88	=88
2r	.	4r	.	4BBn 4BBBn/	4f 4d 4A-X/	.
.	.	2aa-X\	fz	4r	4r	.
[2ff\	fz	.	.	2r	2r	.
.	.	[>4a-X/	fz	.	.	.
=89	=89	=89	=89	=89	=89	=89
*	*	*	*	*	*^	*
!	!	!	!LO:HP:t=dim&colon;	!	!	!	!
4ff\]	.	2a-/]	>	(>4.D 4.DD^/	2r	2ryy	.
(4bn^<\	.	.	.	.	.	.	.
.	.	.	.	8D-X 8DD-X/)	.	.	.
!	!	!	!	!	!LO:N:vis=2	!	!
4cc\	.	(>4an/	.	2C 2CC/	(4c/	2c\	.
.	.	16qqb-/LL	.	.	.	.	.
.	.	16qqa/	.	.	.	.	.
.	.	16qqg#X/	.	.	.	.	.
.	.	16qqa/JJ	.	.	.	.	.
4b-X\	.	16cc/LL	.	.	(4e/)	.	.
.	.	16b-/	.	.	.	.	.
.	.	16gn/	.	.	.	.	.
.	.	16a/JJ)	.	.	.	.	.
*	*	*	*	*	*v	*v	*
=90	=90	=90	=90	=90	=90	=90
4a\)	p	4f/	p	8FF/	16fLL 16c/	p
.	.	.	.	.	16f 16c 16A'>/	.
.	.	.	.	8r	16f 16c 16A'>/	.
.	.	.	.	.	16fJJ 16c 16A'>/)	.
*	*	*	*	*	*tremolo	*
!	!	!	!	!	!LO:TX:t=P:problem:łuk z czterema kropkami (skrótowy zapis tremola)	!
4r	.	4r	.	8..FFT/L	(>16fLL 16c 16A'>/	.
.	.	.	.	.	16f 16c 16A'>/	.
.	.	.	.	.	16f 16c 16A'>/	.
.	.	.	.	.	16fJJ 16c 16A'>/)	.
.	.	.	.	64EE/LLL	.	.
.	.	.	.	64DD/JJJJ	.	.
*clefF4	*	*	*	*	*	*
!	!	!	!	!	!LO:TX:t=P:problem:łuk z czterema kropkami (skrótowy zapis tremola)	!
8.r	.	(4gg\	.	4CC/	(>16eLL 16c 16B-'>/	.
.	.	.	.	.	16e 16c 16B-'>/	.
.	.	.	.	.	16e 16c 16B-'>/	.
*Xtuplet	*	*	*	*	*	*
(48G\LLL	.	.	.	.	16eJJ 16c 16B-'>/)	.
48A\	.	.	.	.	.	.
48Bn\JJJ	.	.	.	.	.	.
!	!	!	!	!	!LO:TX:t=P:problem:łuk z czterema kropkami (skrótowy zapis tremola)	!
16c\LL)	.	4ccc\	.	4r	(>16eLL 16c 16B-'>/	.
80r	.	.	.	.	16e 16c 16B-'>/	.
(80G\LL	.	.	.	.	.	.
80F\	.	.	.	.	.	.
80E\	.	.	.	.	.	.
80D\JJJJ	.	.	.	.	.	.
16C'/LL	.	.	.	.	16e 16c 16B-'>/	.
80r	.	.	.	.	16eJJ 16c 16B-'>/)	.
(<80GG/LL)	.	.	.	.	.	.
80FF/	.	.	.	.	.	.
80EE/	.	.	.	.	.	.
80DD/JJJJ	.	.	.	.	.	.
=91	=91	=91	=91	=91	=91	=91
4FF/)	.	4aa\)	.	8FF/	16fLL 16c 16A/	.
.	.	.	.	.	16f 16c 16A/	.
.	.	.	.	8r	16f 16c 16A/	.
.	.	.	.	.	16fJJ 16c 16A/	.
4r	.	4r	.	8.FFT/L	16fLL 16c 16A/	.
.	.	.	.	.	16f 16c 16A/	.
.	.	.	.	.	16f 16c 16A/	.
!	!	!	!	!LO:N:vis=96	!	!
.	.	.	.	48EE/LL	16fJJ 16c 16A/	<
!	!	!	!	!LO:N:vis=96	!	!
.	.	.	.	48DD/	.	.
!	!	!	!	!LO:N:vis=96	!	!
.	.	.	.	48CC/JJJ	.	.
16r	.	(4gg\	.	4DD/	16fLL 16Bn 16G/	[
!	!LO:HP:a	!	!	!	!	!
(64G\LLLL	<	.	.	.	16f 16B 16G/	>
64A\	.	.	.	.	.	.
64Bn\	.	.	.	.	.	.
64c\JJJ	[	.	.	.	.	.
8d'\J)	.	.	.	.	16f 16B 16G/	.
.	.	.	.	.	16fJJ 16B 16G/	.
*	*	*	*	*	*Xtremolo	*
!	!LO:HP:a	!	!	!	!	!
16r	>	4ccc\)	.	4CCT/	16fLL 16B-X 16G/	.
(64G/LLLL	.	.	.	.	16f 16B- 16G/	]
64F/	.	.	.	.	.	.
64E/	.	.	.	.	.	.
64D/JJJJ	]	.	.	.	.	.
!LO:N:vis=8	!	!	!	!	!	!
32C'/LLL)	.	.	.	.	16e 16B- 16G/	.
!LO:N:vis=64r	!	!	!	!	!	!
32r	.	.	.	.	.	.
(64C/L	.	.	.	.	16eJJ 16B- 16G/	.
64BB-/	.	.	.	.	.	.
64AA/	.	.	.	.	.	.
64GG/JJJJ)	.	.	.	.	.	.
.	.	.	.	16qqBBBn/LL	.	.
.	.	.	.	16qqCC/JJ	.	.
!!LO:PB:g=original
=92	=92	=92	=92	=92	=92	=92
*	*	*	*	*	*^	*
4FF/	.	4ff\	.	8FF/	(4f/	2c 2A\	.
.	.	.	.	8r	.	.	<
[2.f	.	4r	.	4FFT/	4e-X/	.	.
.	.	.	.	16qqEE/LL	.	.	[
.	.	.	.	16qqFF/JJ	.	.	.
.	.	2r	.	8FFF/	4d/	2B-\	.
.	.	.	.	8r	.	.	>
.	.	.	.	4FFT/	4d-X/	.	]
.	.	.	.	16qqEE/LL	.	.	.
.	.	.	.	16qqFF/JJ	.	.	.
*	*	*	*	*	*v	*v	*
=93	=93	=93	=93	=93	=93	=93
*	*	*	*	*	*^	*
*	*	*	*	*	*	*^	*
4f\]	.	[>1f	.	8FFF/	2c (>2A</)	4F</	1F<	.
!	!	!	!	!	!	!	!	!LO:HP:t=dim&colon;
.	.	.	.	8r	.	.	.	>
4r	.	.	.	4FFT>\	.	4E-X</	.	.
[>2FF/	.	.	.	8FFF/	2B-</	4D</	.	.
.	.	.	.	8r	.	.	.	.
.	.	.	.	4FFT>\	.	4D-X</	.	.
.	.	.	.	16qqEE/LL	.	.	.	.
.	.	.	.	16qqFF/JJ	.	.	.	.
*	*	*	*	*	*v	*v	*v	*
=94	=94	=94	=94	=94	=94	=94
!	!	!	!	!	!	!LO:DY:a
4FF/]	.	8f/L]	.	[1FF [1FFF	[1A< 1F< [1C<)	p
.	.	16r	.	.	.	.
.	.	64f/LLL	.	.	.	.
.	.	64g/	.	.	.	.
.	.	64a/	.	.	.	.
.	.	64b-/JJJJ	.	.	.	.
4r	.	16cc\LL	.	.	.	.
!	!	!LO:N:vis=32	!	!	!	!
.	.	64r	.	.	.	.
.	.	(64cc\LL	.	.	.	.
.	.	64dd\	.	.	.	.
.	.	64ee\JJJ	.	.	.	.
.	.	8ff'\J)	.	.	.	.
8.r	.	[>2f/	.	.	.	.
(64c\LLLL	.	.	.	.	.	.
64B-\	.	.	.	.	.	.
64A\	.	.	.	.	.	.
64G\JJJJ)	p	.	.	.	.	.
16F'/LL	.	.	.	.	.	.
64r	.	.	.	.	.	.
(64F/LL	.	.	.	.	.	.
64E/	.	.	.	.	.	.
64D/JJJJ	.	.	.	.	.	.
!LO:N:vis=16	!	!	!	!	!	!
32C'/LLL)	.	.	.	.	.	.
!LO:N:vis=64r	!	!	!	!	!	!
32r	.	.	.	.	.	.
(64C/L	.	.	.	.	.	.
64BB-/	.	.	.	.	.	.
64AA/	.	.	.	.	.	.
64GG/JJJJ	.	.	.	.	.	.
=95	=95	=95	=95	=95	=95	=95
!	!	!	!	!	!	!LO:DY:b=2:rj
2FF/)	pp	2f_ 2A/	.	4FF] 4FFF\]	(4A<] 4E< 4C<'/]	pp
.	.	.	.	4FF 4FFF\	4A< 4F< 4C<'/)	.
2FF/	<	2f] 2A;/	<	2FF 2FFF\	2A< 2F< 2C<;/	.
.	[ > ]	.	[ > ]	.	.	.
==	==	==	==	==	==	==
*-	*-	*-	*-	*-	*-	*-
!!!system-decoration: (s1,s2)(s3,s4)
!!!RDF**kern: > = above
!!!RDF**kern: < = below
!!!ENC: Marta Lawrence
!!!END: 2021-05-15
!!!ENC: Kamil Watkowski
!!!END: 2021-05-01
